!!!!SEGMENT: pl-cz--iii-860--005_volckmer-augustin--litaniae-lauretanae-f-regina-angelorum.krn
!!!cenid: 17xx:1141
!!!COM: Volckmer, Augustin
!!!COM-rismID: pe30020656
!!!CDT: 1755-~1820
!!!CNT:
!!!OPR: Litaniae Lauretanae F
!!!OTL: Regina angelorum
!!!OMV: 005
!!!PDT:
!!!AGN: Sacred; Mass
!!!SMS-siglum: PL-CZ
!!!SMS-shelfmark: III-860
!!!SMS-shelfwork: 001-005 M
!!!SMS-variant:
!!!SMS-altvar:
!!!NIFC-rismSourceID: 300001390
!!!NIFC-rismChildID: 300001390
!!!NIFC-islandoraID: pl-cz:41326
!!!URL-pdf-islandora: https://repozytorium.nifc.pl/islandora/object/pl-cz%3A41326/datastream/PDF/view
!!!URL-scan: https://polish.musicsources.pl/pl/lokalizacje/galeria/rekopisy/7018/1 @EN{Scan on Polish Music Sources Website} @PL{Skany w portalu Dziedzictwo Muzyki Polskiej w otwartym dostępie}
!!!IIIF:
!!!ONB-nifc: UWAGA: części Litanii: Kyrie, Sancta Maria, Virgo prudentissima, Salus infirmorum, Regina angelorum, Agnus Dei
!!!AIN: 1 alto 1 bass 2 cor 2 oboe 1 organ 1 soprn 1 tenor 1 viola 2 violn
!!!key: F
**kern	**fba	**dynam	**kern	**dynam	**kern	**dynam	**kern	**dynam	**kern	**text	**dynam	**kern	**text	**dynam	**kern	**text	**dynam	**kern	**text	**dynam	**kern	**dynam	**kern	**dynam	**kern	**dynam	**kern	**dynam
*	*	*	*group4	*	*group4	*	*group4	*	*group3	*	*	*group3	*	*	*group3	*	*	*group3	*	*	*group2	*	*group2	*	*group1	*	*group1	*
*part12	*part12	*part12	*part11	*part11	*part10	*part10	*part9	*part9	*part8	*part8	*part8	*part7	*part7	*part7	*part6	*part6	*part6	*part5	*part5	*part5	*part4	*part4	*part3	*part3	*part2	*part2	*part1	*part1
*staff12	*	*	*staff11	*	*staff10	*	*staff9	*	*staff8	*staff8	*	*staff7	*staff7	*	*staff6	*staff6	*	*staff5	*staff5	*	*staff4	*	*staff3	*	*staff2	*	*staff1	*
*>[A,A,B]	*>[A,A,B]	*>[A,A,B]	*>[A,A,B]	*>[A,A,B]	*>[A,A,B]	*>[A,A,B]	*>[A,A,B]	*>[A,A,B]	*>[A,A,B]	*>[A,A,B]	*>[A,A,B]	*>[A,A,B]	*>[A,A,B]	*>[A,A,B]	*>[A,A,B]	*>[A,A,B]	*>[A,A,B]	*>[A,A,B]	*>[A,A,B]	*>[A,A,B]	*>[A,A,B]	*>[A,A,B]	*>[A,A,B]	*>[A,A,B]	*>[A,A,B]	*>[A,A,B]	*>[A,A,B]	*>[A,A,B]
*>A	*>A	*>A	*>A	*>A	*>A	*>A	*>A	*>A	*>A	*>A	*>A	*>A	*>A	*>A	*>A	*>A	*>A	*>A	*>A	*>A	*>A	*>A	*>A	*>A	*>A	*>A	*>A	*>A
*I"Organo.	*	*	*I"Viola obgl per expressivo.	*	*I"Violino Secundo.	*	*I"Violino Primo.	*	*I"Baſso.	*	*	*I"Tenore.	*	*	*I"Alto	*	*	*I"Canto.	*	*	*I"Corno Secundo.	*	*I"Corno Primo	*	*I"Hautbois Secunda.	*	*I"Hautbois Prima.	*
*I'org	*	*	*I'vla	*	*I'vl 2	*	*I'vl 1	*	*I'B	*	*	*I'T	*	*	*I'A	*	*	*I'S	*	*	*I'cor 2	*	*I'cor 1	*	*I'ob 2	*	*I'ob 1	*
*Iorgan	*	*	*Iviola	*	*Ivioln	*	*Ivioln	*	*Ibass	*	*	*Itenor	*	*	*Ialto	*	*	*Isoprn	*	*	*Icor	*	*Icor	*	*Ioboe	*	*Ioboe	*
*ICklav	*	*	*ICstr	*	*ICstr	*	*ICstr	*	*ICvox	*	*	*ICvox	*	*	*ICvox	*	*	*ICvox	*	*	*ICbras	*	*ICbras	*	*ICww	*	*ICww	*
*IGcont	*	*	*	*	*	*	*	*	*IGcoro	*	*	*IGcoro	*	*	*IGcoro	*	*	*IGcoro	*	*	*	*	*	*	*	*	*	*
*clefF4	*	*	*clefC3	*	*clefG2	*	*clefG2	*	*clefF4	*	*	*clefC4	*	*	*clefC3	*	*	*clefC1	*	*	*clefG2	*	*clefG2	*	*clefG2	*	*clefG2	*
*	*	*	*	*	*	*	*	*	*	*	*	*	*	*	*	*	*	*	*	*	*ITrd4c7	*	*ITrd4c7	*	*	*	*	*
*k[b-]	*	*	*k[b-]	*	*k[b-]	*	*k[b-]	*	*k[b-]	*	*	*k[b-]	*	*	*k[b-]	*	*	*k[b-]	*	*	*k[b-]	*	*k[b-]	*	*k[b-]	*	*k[b-]	*
*F:	*	*	*F:	*	*F:	*	*F:	*	*F:	*	*	*F:	*	*	*F:	*	*	*F:	*	*	*F:	*	*F:	*	*F:	*	*F:	*
*M4/4	*	*	*M4/4	*	*M4/4	*	*M4/4	*	*M4/4	*	*	*M4/4	*	*	*M4/4	*	*	*M4/4	*	*	*M4/4	*	*M4/4	*	*M4/4	*	*M4/4	*
*met(c)	*	*	*met(c)	*	*met(c)	*	*met(c)	*	*met(c)	*	*	*met(c)	*	*	*met(c)	*	*	*met(c)	*	*	*met(c)	*	*met(c)	*	*met(c)	*	*met(c)	*
*	*	*	*	*	*	*	*all\right	*	*	*	*	*	*	*	*	*	*	*	*	*	*	*	*	*	*	*	*	*
=1!|:	=1!|:	=1!|:	=1!|:	=1!|:	=1!|:	=1!|:	=1!|:	=1!|:	=1!|:	=1!|:	=1!|:	=1!|:	=1!|:	=1!|:	=1!|:	=1!|:	=1!|:	=1!|:	=1!|:	=1!|:	=1!|:	=1!|:	=1!|:	=1!|:	=1!|:	=1!|:	=1!|:	=1!|:
!	!	!	!	!	!	!	!	!	!	!	!	!	!	!	!	!	!	!	!	!	!LO:TX:a:i:t=in f	!	!	!	!	!	!	!
!LO:TX:a:i:t=Allegro	!	!LO:DY:color=red	!LO:TX:a:i:t=allegro	!LO:DY:color=red	!LO:TX:a:i:t=Allegro	!LO:DY:color=red	!LO:TX:a:i:t=Allegro Tutti.	!	!LO:TX:a:i:t=Allegro	!	!	!LO:TX:a:i:t=Allegro	!	!LO:DY:a:color=red	!LO:TX:a:i:t=allegro	!	!LO:DY:b:color=red	!LO:TX:a:i:t=allegro	!	!LO:DY:a:color=red	!LO:TX:a:i:t=allegro	!	!LO:TX:a:i:t=in f	!	!LO:TX:a:i:t=Allegro	!LO:DY:color=red	!LO:TX:a:i:t=Allegro	!
4F\	.	f	4c\	f	4a 4f/	f	4ff 4a\	.	4F\	Re-	.	4c\	Re-	f	4a\	Re-	f	4ff\	Re-	f	4f\	.	4a\	.	4a/	f	4ff\	.
4F\	5 3	.	4c\	.	4a 4f/	.	4ff 4a\	.	4F\	-gi-	.	4c\	-gi-	.	4a\	-gi-	.	4ff\	-gi-	.	4c/	.	4f\	.	4a/	.	4ff\	.
4F\	.	.	4c\	.	4a 4f/	.	4ff 4a\	.	4F\	-na	.	4c\	-na	.	4a\	-na	.	4ff\	-na	.	4F/	.	4c/	.	4a/	.	4ff\	.
4r	.	.	4r	.	8r	.	8r	.	4r	.	.	4r	.	.	4r	.	.	4r	.	.	4r	.	4r	.	4r	.	4r	.
!	!	!	!	!	!	!LO:DY:color=red	!	!LO:DY:t=p&colon;:color=red	!	!	!	!	!	!	!	!	!	!	!	!	!	!	!	!	!	!	!	!
.	.	.	.	.	8a/	p	8cc\	p	.	.	.	.	.	.	.	.	.	.	.	.	.	.	.	.	.	.	.	.
=2	=2	=2	=2	=2	=2	=2	=2	=2	=2	=2	=2	=2	=2	=2	=2	=2	=2	=2	=2	=2	=2	=2	=2	=2	=2	=2	=2	=2
!LO:TX:a:t=2	!	!	!	!LO:DY:color=red	!	!	!	!	!LO:TX:a:t=2	!	!	!LO:TX:a:t=2	!	!	!LO:TX:a:t=2	!	!	!LO:TX:a:t=2	!	!	!LO:TX:a:t=2	!	!LO:TX:a:t=2	!	!LO:TX:a:t=2	!	!LO:TX:a:t=2	!
0r	.	.	4F/	p	4a/	.	4cc\	.	0r	.	.	0r	.	.	0r	.	.	0r	.	.	0r	.	0r	.	0r	.	0r	.
.	.	.	4r	.	(16f/LL	.	(16a/LL	.	.	.	.	.	.	.	.	.	.	.	.	.	.	.	.	.	.	.	.	.
.	.	.	.	.	16e/	.	16g/	.	.	.	.	.	.	.	.	.	.	.	.	.	.	.	.	.	.	.	.	.
.	.	.	.	.	16f/	.	16a/	.	.	.	.	.	.	.	.	.	.	.	.	.	.	.	.	.	.	.	.	.
.	.	.	.	.	16g/JJ)	.	16b-/JJ)	.	.	.	.	.	.	.	.	.	.	.	.	.	.	.	.	.	.	.	.	.
*	*	*	*	*	*tremolo	*	*	*	*	*	*	*	*	*	*	*	*	*	*	*	*	*	*	*	*	*	*	*
!	!	!	!	!	!LO:TX:b:t=''''	!	!	!	!	!	!	!	!	!	!	!	!	!	!	!	!	!	!	!	!	!	!	!
.	.	.	4r	.	8a|/L	.	8cc|\L	.	.	.	.	.	.	.	.	.	.	.	.	.	.	.	.	.	.	.	.	.
.	.	.	.	.	8a|/	.	8cc|\	.	.	.	.	.	.	.	.	.	.	.	.	.	.	.	.	.	.	.	.	.
.	.	.	4F/	.	8a|/	.	8ff|\	.	.	.	.	.	.	.	.	.	.	.	.	.	.	.	.	.	.	.	.	.
.	.	.	.	.	8a|/J	.	8ff|\J	.	.	.	.	.	.	.	.	.	.	.	.	.	.	.	.	.	.	.	.	.
*	*	*	*	*	*Xtremolo	*	*	*	*	*	*	*	*	*	*	*	*	*	*	*	*	*	*	*	*	*	*	*
=3	=3	=3	=3	=3	=3	=3	=3	=3	=3	=3	=3	=3	=3	=3	=3	=3	=3	=3	=3	=3	=3	=3	=3	=3	=3	=3	=3	=3
.	.	.	4B-/	.	8b-|\L	.	8dd|\L	.	.	.	.	.	.	.	.	.	.	.	.	.	.	.	.	.	.	.	.	.
.	.	.	.	.	8b-|\	.	8dd|\	.	.	.	.	.	.	.	.	.	.	.	.	.	.	.	.	.	.	.	.	.
.	.	.	4G/	.	8dd|\	.	8bb-|\	.	.	.	.	.	.	.	.	.	.	.	.	.	.	.	.	.	.	.	.	.
.	.	.	.	.	8dd|\J	.	8bb-|\J	.	.	.	.	.	.	.	.	.	.	.	.	.	.	.	.	.	.	.	.	.
.	.	.	4c/	.	8cc|\L	.	8aa|\L	.	.	.	.	.	.	.	.	.	.	.	.	.	.	.	.	.	.	.	.	.
.	.	.	.	.	8cc|\	.	8aa|\	.	.	.	.	.	.	.	.	.	.	.	.	.	.	.	.	.	.	.	.	.
.	.	.	4C/	.	8g|\	.	8ee|\	.	.	.	.	.	.	.	.	.	.	.	.	.	.	.	.	.	.	.	.	.
.	.	.	.	.	8g|\J	.	8ee|\J	.	.	.	.	.	.	.	.	.	.	.	.	.	.	.	.	.	.	.	.	.
=4	=4	=4	=4	=4	=4	=4	=4	=4	=4	=4	=4	=4	=4	=4	=4	=4	=4	=4	=4	=4	=4	=4	=4	=4	=4	=4	=4	=4
*	*	*	*	*	*	*	*	*	*	*ij	*	*	*ij	*	*	*	*	*	*	*	*	*	*	*	*	*	*	*
!	!	!	!	!LO:DY:color=red	!	!LO:DY:color=red	!	!LO:DY:color=red	!	!	!	!	!	!	!	!	!	!	!	!	!	!	!	!	!	!	!	!
4F\	.	.	4c/	f	4a 4f/	f	4ff 4a|\	f	4F\	Re-	.	4c\	Re-	.	4a\	Re-	.	4ff\	Re-	.	4f\	.	4a\	.	4a/	.	4ff\	.
4F\	.	.	4c/	.	4a 4f/	.	4ff 4a|\	.	4F\	-gi-	.	4c\	-gi-	.	4a\	-gi-	.	4ff\	-gi-	.	4c/	.	4f\	.	4a/	.	4ff\	.
4F\	.	.	4c/	.	4a 4f/	.	4ff 4a|\	.	4F\	-na	.	4c\	-na	.	4a\	-na	.	4ff\	-na	.	4F/	.	4c/	.	4a/	.	4ff\	.
*	*	*	*	*	*	*	*	*	*	*Xij	*	*	*Xij	*	*	*	*	*	*	*	*	*	*	*	*	*	*	*
4r	.	.	4r	.	8r	.	8r	.	4r	.	.	4r	.	.	4r	.	.	4r	.	.	4r	.	4r	.	4r	.	4r	.
!	!	!	!	!	!	!LO:DY:color=red	!	!LO:DY:color=red	!	!	!	!	!	!	!	!	!	!	!	!	!	!	!	!	!	!	!	!
.	.	.	.	.	8a/	p	8cc\	p	.	.	.	.	.	.	.	.	.	.	.	.	.	.	.	.	.	.	.	.
=5	=5	=5	=5	=5	=5	=5	=5	=5	=5	=5	=5	=5	=5	=5	=5	=5	=5	=5	=5	=5	=5	=5	=5	=5	=5	=5	=5	=5
!	!	!	!	!LO:DY:color=red	!	!	!	!	!	!	!	!	!	!	!	!	!	!	!	!	!LO:TX:a:t=1	!	!LO:TX:a:t=1	!	!	!	!	!
2r	.	.	4c/	p	4a/	.	4cc\	.	2r	.	.	2r	.	.	2r	.	.	2r	.	.	1r	.	1r	.	2r	.	2r	.
.	.	.	4r	.	(16f/LL	.	(16a/LL	.	.	.	.	.	.	.	.	.	.	.	.	.	.	.	.	.	.	.	.	.
.	.	.	.	.	16e/	.	16g/	.	.	.	.	.	.	.	.	.	.	.	.	.	.	.	.	.	.	.	.	.
.	.	.	.	.	16f/	.	16a/	.	.	.	.	.	.	.	.	.	.	.	.	.	.	.	.	.	.	.	.	.
.	.	.	.	.	16g/JJ)	.	16b-/JJ)	.	.	.	.	.	.	.	.	.	.	.	.	.	.	.	.	.	.	.	.	.
*	*	*	*	*	*tremolo	*	*	*	*	*	*	*	*	*	*	*	*	*	*	*	*	*	*	*	*	*	*	*
!	!	!	!	!	!LO:TX:b:t=''''	!LO:DY:color=red	!	!	!	!	!	!	!	!	!	!	!	!	!	!	!	!	!	!	!	!	!	!
4r	.	.	4r	.	8a|/L	f	8cc|\L	.	4r	.	.	4r	.	.	4r	.	.	4r	.	.	.	.	.	.	4r	.	4r	.
.	.	.	.	.	8a|/	.	8cc|\	.	.	.	.	.	.	.	.	.	.	.	.	.	.	.	.	.	.	.	.	.
!	!	!	!	!LO:DY:color=red	!	!	!	!LO:DY:color=red:t=forto	!	!	!	!	!	!	!	!	!	!	!	!	!	!	!	!	!	!	!	!
4F\	.	.	4c/	f	8a|/	.	8ff|\	f	(4F\	An-	.	(4c\	An-	.	(4a\	An-	.	(4ff\	A-	.	.	.	.	.	4a/	.	4ff\	.
.	.	.	.	.	8a|/J	.	8ff|\J	.	.	.	.	.	.	.	.	.	.	.	.	.	.	.	.	.	.	.	.	.
*	*	*	*	*	*Xtremolo	*	*	*	*	*	*	*	*	*	*	*	*	*	*	*	*	*	*	*	*	*	*	*
=6	=6	=6	=6	=6	=6	=6	=6	=6	=6	=6	=6	=6	=6	=6	=6	=6	=6	=6	=6	=6	=6	=6	=6	=6	=6	=6	=6	=6
4BB-/	.	.	4f\	.	8b-|\L	.	8dd|\L	.	4B-\)	.	.	4f\)	-ge-	.	4b-\)	-ge-	.	4dd\)	.	.	2r	.	2r	.	4b-\	.	4dd\	.
.	.	.	.	.	8b-|\	.	8dd|\	.	.	.	.	.	.	.	.	.	.	.	.	.	.	.	.	.	.	.	.	.
4GG/	.	.	4e\	.	8dd|\	.	8bb-|\	.	4G\	-ge-	.	4B-\	.	.	4b-\	.	.	4dd\	-ge-	.	.	.	.	.	4dd\	.	4bb-\	.
.	.	.	.	.	8dd|\J	.	8bb-|\J	.	.	.	.	.	.	.	.	.	.	.	.	.	.	.	.	.	.	.	.	.
*	*	*	*	*	*	*	*	*	*	*	*	*2\right	*	*	*	*	*	*	*	*	*	*	*	*	*	*	*	*
4C/	4	.	4c\	.	8cc|\L	.	8aa|\L	.	4c\	-lo-	.	2c\	-lo-	.	(4a\	-lo-	.	(4cc\	-lo-	.	4r	.	4r	.	4cc\	.	4aa\	.
.	.	.	.	.	8cc|\	.	8aa|\	.	.	.	.	.	.	.	.	.	.	.	.	.	.	.	.	.	.	.	.	.
4CC/	3	.	4c\	.	8g|\	.	8ee|\	.	4C/	.	.	.	.	.	4g\)	.	.	4ee\)	.	.	4c/	.	4g\	.	4g/	.	4ee\	.
!	!	!	!	!	!	!LO:DY:color=red	!	!	!	!	!	!	!	!	!	!	!	!	!	!	!	!	!	!	!	!	!	!
.	.	.	.	.	8g|\J	ff	8ee|\J	.	.	.	.	.	.	.	.	.	.	.	.	.	.	.	.	.	.	.	.	.
=7	=7	=7	=7	=7	=7	=7	=7	=7	=7	=7	=7	=7	=7	=7	=7	=7	=7	=7	=7	=7	=7	=7	=7	=7	=7	=7	=7	=7
*^	*	*	*	*	*	*	*	*	*	*	*	*	*	*	*	*	*	*	*	*	*	*	*	*	*	*	*	*
*	*	*	*	*	*	*	*	*	*	*	*	*	*	*	*	*	*	*	*	*	*	*2\right	*	*2\right	*	*	*	*2\right	*
!	!	!	!	!	!LO:DY:color=red	!	!	!	!	!	!	!	!	!	!	!	!	!	!	!	!	!	!	!	!	!	!	!	!
8F/L	8FF/L	5_ 3_	.	(16f\LL	ff	(16A/LL	.	4ff\	.	4F,<\	-rum	.	4c,<\	-rum	.	4a,<\	-rum	.	4ff\	-rum	.	2f\	.	2a\	.	2a/	.	2ff\	.
.	.	.	.	16a\)	.	16c/)	.	.	.	.	.	.	.	.	.	.	.	.	.	.	.	.	.	.	.	.	.	.	.
8F/	8FF/	.	.	(16f\	.	(16A/	.	.	.	.	.	.	.	.	.	.	.	.	.	.	.	.	.	.	.	.	.	.	.
.	.	.	.	16a\JJ)	.	16c/JJ)	.	.	.	.	.	.	.	.	.	.	.	.	.	.	.	.	.	.	.	.	.	.	.
8F/	8FF/	.	.	(16f\LL	.	(16A/LL	.	(16a/LL	.	4F\	Re-	.	4c\	Re-	.	4a\	Re-	.	4cc\	Re-	.	.	.	.	.	.	.	.	.
.	.	.	.	16a\)	.	16c/)	.	16b-/	.	.	.	.	.	.	.	.	.	.	.	.	.	.	.	.	.	.	.	.	.
8F/J	8FF/J	.	.	(16f\	.	(16A/	.	16cc/	.	.	.	.	.	.	.	.	.	.	.	.	.	.	.	.	.	.	.	.	.
.	.	.	.	16a\JJ)	.	16c/JJ)	.	16b-/JJ)	.	.	.	.	.	.	.	.	.	.	.	.	.	.	.	.	.	.	.	.	.
*	*	*	*	*2\right	*	*	*	*	*	*	*	*	*	*	*	*	*	*	*	*	*	*	*	*	*	*	*	*	*
*tremolo	*	*	*	*tremolo	*	*tremolo	*	*	*	*	*	*	*	*	*	*	*	*	*	*	*	*	*	*	*	*	*	*	*
!	!	!	!	!	!	!	!	!LO:LB:g=original	!	!	!	!	!	!	!	!	!	!	!	!	!	!	!	!	!	!	!	!	!
8F 8FF/L	2ryy	.	.	16f\LL	.	(16A/LL	.	8a|/L	.	4F\	-gi-	.	4c\	-gi-	.	4a\	-gi-	.	4cc\	-gi-	.	4f\	.	4a\	.	2a/	.	2cc\	.
.	.	.	.	16a\	.	16c/	.	.	.	.	.	.	.	.	.	.	.	.	.	.	.	.	.	.	.	.	.	.	.
8F 8FF/	.	.	.	16f\	.	16A/	.	8f|/	.	.	.	.	.	.	.	.	.	.	.	.	.	.	.	.	.	.	.	.	.
.	.	.	.	16a\	.	16c/	.	.	.	.	.	.	.	.	.	.	.	.	.	.	.	.	.	.	.	.	.	.	.
8F 8FF/	.	.	.	16f\	.	16A/	.	8a|/	.	4F\	-na	.	4c\	-na	.	4a\	-na	.	4cc\	-na	.	4f\	.	4a\	.	.	.	.	.
.	.	.	.	16a\	.	16c	.	.	.	.	.	.	.	.	.	.	.	.	.	.	.	.	.	.	.	.	.	.	.
8F 8FF/J	.	.	.	16f\	.	16A/	.	8cc|/J	.	.	.	.	.	.	.	.	.	.	.	.	.	.	.	.	.	.	.	.	.
.	.	.	.	16a\JJ	.	16c/JJ)	.	.	.	.	.	.	.	.	.	.	.	.	.	.	.	.	.	.	.	.	.	.	.
*	*	*	*	*	*	*Xtremolo	*	*	*	*	*	*	*	*	*	*	*	*	*	*	*	*	*	*	*	*	*	*	*
*v	*v	*	*	*	*	*	*	*	*	*	*	*	*	*	*	*	*	*	*	*	*	*	*	*	*	*	*	*	*
!	!	!	!	!	!LO:LB:g=original	!	!	!	!	!	!	!	!	!	!	!	!	!	!	!	!	!	!	!	!	!	!	!
=8	=8	=8	=8	=8	=8	=8	=8	=8	=8	=8	=8	=8	=8	=8	=8	=8	=8	=8	=8	=8	=8	=8	=8	=8	=8	=8	=8	=8
8F 8FF/L	.	.	16f\LL	.	(16A/LL	.	4ff|\	.	4.F\	An-	.	4.c\	An-	.	4.a\	An-	.	4.cc\	An-	.	1f	.	1a	.	2a/	.	2cc\	.
.	.	.	16a\	.	16c/)	.	.	.	.	.	.	.	.	.	.	.	.	.	.	.	.	.	.	.	.	.	.	.
8F 8FF/	.	.	16f\	.	(16A/	.	.	.	.	.	.	.	.	.	.	.	.	.	.	.	.	.	.	.	.	.	.	.
.	.	.	16a\	.	16c/JJ)	.	.	.	.	.	.	.	.	.	.	.	.	.	.	.	.	.	.	.	.	.	.	.
8F 8FF/	.	.	16f\	.	(16A/LL	.	4aa|\	.	.	.	.	.	.	.	.	.	.	.	.	.	.	.	.	.	.	.	.	.
.	.	.	16a\	.	16c/)	.	.	.	.	.	.	.	.	.	.	.	.	.	.	.	.	.	.	.	.	.	.	.
8F 8FF/J	.	.	16f\	.	(16A/	.	.	.	8F\	-ge-	.	8c\	-ge-	.	8a\	-ge-	.	8cc\	-ge-	.	.	.	.	.	.	.	.	.
.	.	.	16a\JJ	.	16c/JJ)	.	.	.	.	.	.	.	.	.	.	.	.	.	.	.	.	.	.	.	.	.	.	.
*	*	*	*Xtremolo	*	*tremolo	*	*	*	*	*	*	*	*	*	*	*	*	*	*	*	*	*	*	*	*	*	*	*
!	!	!	!LO:LB:g=original	!	!	!	!	!	!	!	!	!	!	!	!	!	!	!	!	!	!	!	!	!	!	!	!	!
8F 8FF/L	.	.	(16f\LL	.	(16A/LL	.	4ccc|\	.	4F\	-lo-	.	4c\	-lo-	.	4a\	-lo-	.	4cc\	-lo-	.	.	.	.	.	2a/	.	2cc\	.
.	.	.	16a\)	.	16c/	.	.	.	.	.	.	.	.	.	.	.	.	.	.	.	.	.	.	.	.	.	.	.
8F 8FF/	.	.	(16f\	.	16A/	.	.	.	.	.	.	.	.	.	.	.	.	.	.	.	.	.	.	.	.	.	.	.
.	.	.	16a\JJ)	.	16c/	.	.	.	.	.	.	.	.	.	.	.	.	.	.	.	.	.	.	.	.	.	.	.
8F 8FF/	.	.	(16f\LL	.	16A/	.	4aa|\	.	4F\	-rum	.	4c\	-rum	.	4a\	-rum	.	4cc\	-rum	.	.	.	.	.	.	.	.	.
.	.	.	16a\)	.	16c/	.	.	.	.	.	.	.	.	.	.	.	.	.	.	.	.	.	.	.	.	.	.	.
8F 8FF/J	.	.	(16f\	.	16A/	.	.	.	.	.	.	.	.	.	.	.	.	.	.	.	.	.	.	.	.	.	.	.
.	.	.	16a\JJ)	.	16c/JJ)	.	.	.	.	.	.	.	.	.	.	.	.	.	.	.	.	.	.	.	.	.	.	.
*	*	*	*	*	*Xtremolo	*	*	*	*	*	*	*	*	*	*	*	*	*	*	*	*	*	*	*	*	*	*	*
!	!	!	!	!	!	!	!	!	!	!	!	!	!	!	!	!	!	!LO:LB:g=original	!	!	!	!	!	!	!	!	!	!
=9	=9	=9	=9	=9	=9	=9	=9	=9	=9	=9	=9	=9	=9	=9	=9	=9	=9	=9	=9	=9	=9	=9	=9	=9	=9	=9	=9	=9
*	*	*	*	*	*	*	*	*	*2\right	*	*	*	*	*	*2\right	*	*	*2\right	*	*	*	*	*	*	*	*	*	*
8F 8FF/L	6_ 4_	.	(16f\LL	.	(16B-/LL	.	4ff\	.	2F\	Re-	.	2f\	Re-	.	2b-\	Re-	.	2dd\	Re-	.	2F/	.	2f\	.	2b-/	.	2dd\	.
.	.	.	16b-\)	.	16d/)	.	.	.	.	.	.	.	.	.	.	.	.	.	.	.	.	.	.	.	.	.	.	.
8F 8FF/	.	.	(16f\	.	(16B-/	.	.	.	.	.	.	.	.	.	.	.	.	.	.	.	.	.	.	.	.	.	.	.
.	.	.	16b-\JJ)	.	16d/JJ)	.	.	.	.	.	.	.	.	.	.	.	.	.	.	.	.	.	.	.	.	.	.	.
8F 8FF/	.	.	(16f\LL	.	(16B-/LL	.	(16b-\LL	.	.	.	.	.	.	.	.	.	.	.	.	.	.	.	.	.	.	.	.	.
.	.	.	16b-\)	.	16d/)	.	16cc\	.	.	.	.	.	.	.	.	.	.	.	.	.	.	.	.	.	.	.	.	.
8F 8FF/J	.	.	(16f\	.	(16B-/	.	16dd\	.	.	.	.	.	.	.	.	.	.	.	.	.	.	.	.	.	.	.	.	.
.	.	.	16b-\JJ)	.	16d/JJ)	.	16cc\JJ)	.	.	.	.	.	.	.	.	.	.	.	.	.	.	.	.	.	.	.	.	.
*	*	*	*tremolo	*	*tremolo	*	*	*	*	*	*	*	*	*	*	*	*	*	*	*	*	*	*	*	*	*	*	*
!	!	!	!	!	!	!	!	!	!	!	!	!LO:LB:g=original	!	!	!	!	!	!	!	!	!	!	!	!	!	!	!	!
8F 8FF/L	.	.	16f\LL	.	(16B-/LL	.	8b-/L	.	4F\	-gi-	.	4f\	-gi-	.	4b-\	-gi-	.	4dd\	-gi-	.	4F/	.	4f\	.	2b-/	.	2dd\	.
.	.	.	16b-\	.	16d/	.	.	.	.	.	.	.	.	.	.	.	.	.	.	.	.	.	.	.	.	.	.	.
8F 8FF/	.	.	16f\	.	16B-/	.	8f/	.	.	.	.	.	.	.	.	.	.	.	.	.	.	.	.	.	.	.	.	.
.	.	.	16b-\	.	16d/	.	.	.	.	.	.	.	.	.	.	.	.	.	.	.	.	.	.	.	.	.	.	.
8F 8FF/	.	.	16f\	.	16B-/	.	8b-/	.	4F\	-na	.	4f\	-na	.	4b-\	-na	.	4dd\	-na	.	4F/	.	4f\	.	.	.	.	.
.	.	.	16b-\	.	16d/	.	.	.	.	.	.	.	.	.	.	.	.	.	.	.	.	.	.	.	.	.	.	.
8F 8FF/J	.	.	16f\	.	16B-/	.	8dd/J	.	.	.	.	.	.	.	.	.	.	.	.	.	.	.	.	.	.	.	.	.
.	.	.	16b-\JJ	.	16d/JJ)	.	.	.	.	.	.	.	.	.	.	.	.	.	.	.	.	.	.	.	.	.	.	.
!	!	!	!	!	!	!	!	!	!LO:LB:g=original	!	!	!	!	!	!LO:LB:g=original	!	!	!	!	!	!	!	!	!	!	!	!	!
=10	=10	=10	=10	=10	=10	=10	=10	=10	=10	=10	=10	=10	=10	=10	=10	=10	=10	=10	=10	=10	=10	=10	=10	=10	=10	=10	=10	=10
8F 8FF/L	.	.	16f\LL	.	(16B-/LL	.	4ff\	.	4F\	Pa-	.	4f\	Pa-	.	4b-\	Pa-	.	4dd\	Pa-	.	1F	.	1f	.	2b-/	.	2dd\	.
.	.	.	16b-\	.	16d/	.	.	.	.	.	.	.	.	.	.	.	.	.	.	.	.	.	.	.	.	.	.	.
8F 8FF/	.	.	16f\	.	16B-/	.	.	.	.	.	.	.	.	.	.	.	.	.	.	.	.	.	.	.	.	.	.	.
.	.	.	16b-\	.	16d/	.	.	.	.	.	.	.	.	.	.	.	.	.	.	.	.	.	.	.	.	.	.	.
.	.	.	.	.	.	.	8qqccc/	.	.	.	.	.	.	.	.	.	.	.	.	.	.	.	.	.	.	.	.	.
8F 8FF/	.	.	16f\	.	16B-/	.	4bb-|\	.	8F\	-tri-	.	8f\	-tri-	.	8b-\	-tri-	.	8dd\	-tri-	.	.	.	.	.	.	.	.	.
.	.	.	16b-\	.	16d/	.	.	.	.	.	.	.	.	.	.	.	.	.	.	.	.	.	.	.	.	.	.	.
8F 8FF/J	.	.	16f\	.	16B-/	.	.	.	8F\	-ar-	.	8f\	-ar-	.	8b-\	-ar-	.	8dd\	-ar-	.	.	.	.	.	.	.	.	.
.	.	.	16b-\JJ	.	16d/JJ)	.	.	.	.	.	.	.	.	.	.	.	.	.	.	.	.	.	.	.	.	.	.	.
.	.	.	.	.	.	.	16qqaa/LL	.	.	.	.	.	.	.	.	.	.	.	.	.	.	.	.	.	.	.	.	.
.	.	.	.	.	.	.	16qqbb-/JJ	.	.	.	.	.	.	.	.	.	.	.	.	.	.	.	.	.	.	.	.	.
8F 8FF/L	.	.	16f\LL	.	(16B-/LL	.	4ddd|\	.	4F\	-cha-	.	4f\	-cha-	.	4b-\	-cha-	.	4dd\	-cha-	.	.	.	.	.	2b-/	.	2dd\	.
.	.	.	16b-\	.	16d/	.	.	.	.	.	.	.	.	.	.	.	.	.	.	.	.	.	.	.	.	.	.	.
8F 8FF/	.	.	16f\	.	16B-/	.	.	.	.	.	.	.	.	.	.	.	.	.	.	.	.	.	.	.	.	.	.	.
.	.	.	16b-\	.	16d/	.	.	.	.	.	.	.	.	.	.	.	.	.	.	.	.	.	.	.	.	.	.	.
8F 8FF/	.	.	16f\	.	16B-/	.	4bb-|\	.	4F\	-rum	.	4f\	-rum	.	4b-\	-rum	.	4dd\	-rum	.	.	.	.	.	.	.	.	.
.	.	.	16b-\	.	16d/	.	.	.	.	.	.	.	.	.	.	.	.	.	.	.	.	.	.	.	.	.	.	.
8F 8FF/J	.	.	16f\	.	16B-/	.	.	.	.	.	.	.	.	.	.	.	.	.	.	.	.	.	.	.	.	.	.	.
.	.	.	16b-\JJ	.	16d/JJ)	.	.	.	.	.	.	.	.	.	.	.	.	.	.	.	.	.	.	.	.	.	.	.
*	*	*	*Xtremolo	*	*	*	*	*	*	*	*	*	*	*	*	*	*	*	*	*	*	*	*	*	*	*	*	*
!LO:LB:g=original	!	!	!	!	!	!	!	!	!	!	!	!	!	!	!	!	!	!	!	!	!	!	!	!	!	!	!	!
=11	=11	=11	=11	=11	=11	=11	=11	=11	=11	=11	=11	=11	=11	=11	=11	=11	=11	=11	=11	=11	=11	=11	=11	=11	=11	=11	=11	=11
8F 8FF/L	5_ 3_	.	(16f\LL	.	(16A/LL	.	4ff\	.	2F\	Re-	.	2c\	Re-	.	2a\	Re-	.	2cc\	Re-	.	2f\	.	2a\	.	2a/	.	2cc\	.
.	.	.	16a\)	.	16c/	.	.	.	.	.	.	.	.	.	.	.	.	.	.	.	.	.	.	.	.	.	.	.
8F 8FF/	.	.	(16f\	.	16A/	.	.	.	.	.	.	.	.	.	.	.	.	.	.	.	.	.	.	.	.	.	.	.
.	.	.	16a\JJ)	.	16c/	.	.	.	.	.	.	.	.	.	.	.	.	.	.	.	.	.	.	.	.	.	.	.
8F 8FF/	.	.	(16f\LL	.	16A/	.	(16a/LL	.	.	.	.	.	.	.	.	.	.	.	.	.	.	.	.	.	.	.	.	.
.	.	.	16a\)	.	16c/	.	16b-/	.	.	.	.	.	.	.	.	.	.	.	.	.	.	.	.	.	.	.	.	.
8F 8FF/J	.	.	(16f\	.	16A	.	16cc/	.	.	.	.	.	.	.	.	.	.	.	.	.	.	.	.	.	.	.	.	.
.	.	.	16a\JJ)	.	16c/JJ)	.	16b-/JJ)	.	.	.	.	.	.	.	.	.	.	.	.	.	.	.	.	.	.	.	.	.
*	*	*	*tremolo	*	*	*	*	*	*	*	*	*	*	*	*	*	*	*	*	*	*	*	*	*	*	*	*	*
8F 8FF/L	.	.	(16f\LL	.	(16A/LL	.	8a/L	.	4F\	-gi-	.	4c\	-gi-	.	4a\	-gi-	.	4cc\	-gi-	.	4f\	.	4a\	.	2a/	.	2cc\	.
.	.	.	16a\	.	16c/	.	.	.	.	.	.	.	.	.	.	.	.	.	.	.	.	.	.	.	.	.	.	.
8F 8FF/	.	.	16f\	.	16A/	.	8f/	.	.	.	.	.	.	.	.	.	.	.	.	.	.	.	.	.	.	.	.	.
.	.	.	16a\	.	16c/	.	.	.	.	.	.	.	.	.	.	.	.	.	.	.	.	.	.	.	.	.	.	.
8F 8FF/	.	.	16f\	.	16A/	.	8a/	.	4F\	-na	.	4c\	-na	.	4a\	-na	.	4cc\	-na	.	4f\	.	4a\	.	.	.	.	.
.	.	.	16a\	.	16c/	.	.	.	.	.	.	.	.	.	.	.	.	.	.	.	.	.	.	.	.	.	.	.
8F 8FF/J	.	.	16f\	.	16A/	.	8cc/J	.	.	.	.	.	.	.	.	.	.	.	.	.	.	.	.	.	.	.	.	.
.	.	.	16a\JJ)	.	16c/JJ)	.	.	.	.	.	.	.	.	.	.	.	.	.	.	.	.	.	.	.	.	.	.	.
!	!	!	!	!	!	!	!	!	!	!	!	!	!	!	!	!	!	!	!	!	!	!	!	!	!LO:LB:g=original	!	!LO:LB:g=original	!
=12	=12	=12	=12	=12	=12	=12	=12	=12	=12	=12	=12	=12	=12	=12	=12	=12	=12	=12	=12	=12	=12	=12	=12	=12	=12	=12	=12	=12
8FL 8FF/	.	.	(16f\LL	.	(16A/LL	.	4ff|\	.	4.F\	Pro-	.	4.c\	Pro-	.	4.a\	Pro-	.	4.cc\	Pro-	.	1f	.	1a	.	2a/	.	2cc\	.
.	.	.	16a\	.	16c/	.	.	.	.	.	.	.	.	.	.	.	.	.	.	.	.	.	.	.	.	.	.	.
8F 8FF/	.	.	16f\	.	16A/	.	.	.	.	.	.	.	.	.	.	.	.	.	.	.	.	.	.	.	.	.	.	.
.	.	.	16a\	.	16c/	.	.	.	.	.	.	.	.	.	.	.	.	.	.	.	.	.	.	.	.	.	.	.
!	!	!	!	!	!	!	!LO:TX:t=t&colon;	!	!	!	!	!	!	!	!	!	!	!	!	!	!	!	!	!	!	!	!	!
8F 8FF/	.	.	16f\	.	16A/	.	4aa\	.	.	.	.	.	.	.	.	.	.	.	.	.	.	.	.	.	.	.	.	.
.	.	.	16a\	.	16c/	.	.	.	.	.	.	.	.	.	.	.	.	.	.	.	.	.	.	.	.	.	.	.
8FJ 8FF/	.	.	16f\	.	16A/	.	.	.	8F\	-phe-	.	8c\	-phe-	.	8a\	-phe-	.	8cc\	-phe-	.	.	.	.	.	.	.	.	.
.	.	.	16a\JJ)	.	16c/JJ)	.	.	.	.	.	.	.	.	.	.	.	.	.	.	.	.	.	.	.	.	.	.	.
8FL 8FF/	.	.	(16f\LL	.	(16A/LL	.	4ccc\	.	4F\	-ta-	.	4c\	-ta-	.	4a\	-ta-	.	4cc\	-ta-	.	.	.	.	.	2a/	.	2cc\	.
.	.	.	16a\	.	16c/	.	.	.	.	.	.	.	.	.	.	.	.	.	.	.	.	.	.	.	.	.	.	.
8F 8FF/	.	.	16f\	.	16A/	.	.	.	.	.	.	.	.	.	.	.	.	.	.	.	.	.	.	.	.	.	.	.
.	.	.	16a\	.	16c/	.	.	.	.	.	.	.	.	.	.	.	.	.	.	.	.	.	.	.	.	.	.	.
8F 8FF/	.	.	16f\	.	16A/	.	4aa|\	.	4F\	-rum	.	4c\	-rum	.	4a\	-rum	.	4cc\	-rum	.	.	.	.	.	.	.	.	.
.	.	.	16a\	.	16c/	.	.	.	.	.	.	.	.	.	.	.	.	.	.	.	.	.	.	.	.	.	.	.
8FJ 8FF/	.	.	16f\	.	16A/	.	.	.	.	.	.	.	.	.	.	.	.	.	.	.	.	.	.	.	.	.	.	.
.	.	.	16a\JJ)	.	16c/JJ)	.	.	.	.	.	.	.	.	.	.	.	.	.	.	.	.	.	.	.	.	.	.	.
*Xtremolo	*	*	*Xtremolo	*	*Xtremolo	*	*	*	*	*	*	*	*	*	*	*	*	*	*	*	*	*	*	*	*	*	*	*
!	!	!	!	!	!	!	!	!	!	!	!	!	!	!	!	!	!	!LO:PB:g=original	!	!	!	!	!	!	!	!	!	!
=13	=13	=13	=13	=13	=13	=13	=13	=13	=13	=13	=13	=13	=13	=13	=13	=13	=13	=13	=13	=13	=13	=13	=13	=13	=13	=13	=13	=13
!	!	!	!	!	!	!	!	!	!	!	!	!	!	!	!	!	!	!LO:TX:t=P:problem:14 wykreślonych taktów	!	!	!	!	!	!	!	!	!	!
8E\L	7 5	.	8cc 8e 8c\	.	4B-/	.	4bb-\	.	2C/	o-	.	2B-\	o-	.	2g\	o-	.	2ee\	o-	.	2c/	.	2g\	.	2g/	.	2ee\	.
8C\	.	.	4cc 4e 4c\	.	.	.	.	.	.	.	.	.	.	.	.	.	.	.	.	.	.	.	.	.	.	.	.	.
8E\	.	.	.	.	(16g/LL	.	(16gg\LL	.	.	.	.	.	.	.	.	.	.	.	.	.	.	.	.	.	.	.	.	.
.	.	.	.	.	16a/	.	16aa\	.	.	.	.	.	.	.	.	.	.	.	.	.	.	.	.	.	.	.	.	.
8C\J	.	.	4cc 4e 4c\	.	16b-/	.	16bb-\	.	.	.	.	.	.	.	.	.	.	.	.	.	.	.	.	.	.	.	.	.
.	.	.	.	.	16a/JJ)	.	16aa\JJ)	.	.	.	.	.	.	.	.	.	.	.	.	.	.	.	.	.	.	.	.	.
8E\L	.	.	.	.	(16g/LL	.	(16gg\LL	.	4C/	-ra	.	4B-\	-ra	.	4g\	-ra	.	4ee\	-ra	.	4c/	.	4g\	.	2b-/	.	2ee\	.
.	.	.	.	.	16a/	.	16aa\	.	.	.	.	.	.	.	.	.	.	.	.	.	.	.	.	.	.	.	.	.
8C\	.	.	4cc 4e 4c\	.	16g/	.	16gg\	.	.	.	.	.	.	.	.	.	.	.	.	.	.	.	.	.	.	.	.	.
.	.	.	.	.	16f/JJ)	.	16ff\JJ)	.	.	.	.	.	.	.	.	.	.	.	.	.	.	.	.	.	.	.	.	.
8E\	.	.	.	.	(16f/LL	.	(16ff\LL	.	4C/	pro	.	4B-\	pro	.	4g\	pro	.	4ee\	pro	.	4c/	.	4g\	.	.	.	.	.
.	.	.	.	.	16e/	.	16ee\	.	.	.	.	.	.	.	.	.	.	.	.	.	.	.	.	.	.	.	.	.
8C\J	.	.	8cc 8e 8c\	.	16d/	.	16dd\	.	.	.	.	.	.	.	.	.	.	.	.	.	.	.	.	.	.	.	.	.
.	.	.	.	.	16c/JJ)	.	16cc\JJ)	.	.	.	.	.	.	.	.	.	.	.	.	.	.	.	.	.	.	.	.	.
=14	=14	=14	=14	=14	=14	=14	=14	=14	=14	=14	=14	=14	=14	=14	=14	=14	=14	=14	=14	=14	=14	=14	=14	=14	=14	=14	=14	=14
!	!	!	!	!	!	!	!LO:TX:t=P:problem:mixed beam	!	!	!	!	!	!	!	!	!	!	!	!	!	!	!	!	!	!	!	!	!
8F\L	.	.	8a 8f\	.	4f/	.	8ff\L	.	2F\	no-	.	2c\	no-	.	2a\	no-	.	2ff\	no-	.	4f\	.	4a\	.	2a/	.	2ff\	.
8C\	.	.	4a 4f\	.	.	.	8f|/	.	.	.	.	.	.	.	.	.	.	.	.	.	.	.	.	.	.	.	.	.
8F\	.	.	.	.	8A/L	.	8a|/	.	.	.	.	.	.	.	.	.	.	.	.	.	8f\L	.	8a\L	.	.	.	.	.
8C\J	.	.	4a 4f\	.	8c/J	.	8cc|/J	.	.	.	.	.	.	.	.	.	.	.	.	.	8f\J	.	8a\J	.	.	.	.	.
8F\L	.	.	.	.	8f|/L	.	8ff|\L	.	2F\	-bis	.	2c\	-bis	.	2a\	-bis	.	2ff\	-bis	.	4f\	.	4a\	.	2a/	.	2ff\	.
8C\	.	.	4a 4f\	.	8a|/	.	8aa|\	.	.	.	.	.	.	.	.	.	.	.	.	.	.	.	.	.	.	.	.	.
8F\	.	.	.	.	8cc|/	.	8ccc|\	.	.	.	.	.	.	.	.	.	.	.	.	.	4f\	.	4a\	.	.	.	.	.
8C\J	.	.	8a 8f\	.	8a|/J	.	8aa|\J	.	.	.	.	.	.	.	.	.	.	.	.	.	.	.	.	.	.	.	.	.
!	!	!	!LO:LB:g=original	!	!LO:LB:g=original	!	!	!	!	!	!	!	!	!	!	!	!	!	!	!	!	!	!LO:LB:g=original	!	!	!	!	!
=15	=15	=15	=15	=15	=15	=15	=15	=15	=15	=15	=15	=15	=15	=15	=15	=15	=15	=15	=15	=15	=15	=15	=15	=15	=15	=15	=15	=15
8E\L	7_ 5_	.	8cc 8e\	.	4b-/	.	4bb-\	.	2C/	o-	.	2B-\	o-	.	2g\	o-	.	2ee\	o-	.	2c/	.	2g\	.	2g/	.	2ee\	.
8C\	.	.	4cc 4e\	.	.	.	.	.	.	.	.	.	.	.	.	.	.	.	.	.	.	.	.	.	.	.	.	.
8E\	.	.	.	.	(16g/LL	.	(16gg\LL	.	.	.	.	.	.	.	.	.	.	.	.	.	.	.	.	.	.	.	.	.
.	.	.	.	.	16a/	.	16aa\	.	.	.	.	.	.	.	.	.	.	.	.	.	.	.	.	.	.	.	.	.
8C\J	.	.	4cc 4e\	.	16b-/	.	16bb-\	.	.	.	.	.	.	.	.	.	.	.	.	.	.	.	.	.	.	.	.	.
.	.	.	.	.	16a/JJ)	.	16aa\JJ)	.	.	.	.	.	.	.	.	.	.	.	.	.	.	.	.	.	.	.	.	.
!	!	!	!	!	!	!	!LO:LB:g=original	!	!	!	!	!	!	!	!	!	!	!	!	!	!LO:LB:g=original	!	!	!	!	!	!	!
8E\L	.	.	.	.	(16g/LL	.	(16gg\LL	.	4C/	-ra	.	4B-\	-ra	.	4g\	-ra	.	4ee\	-ra	.	4c/	.	4g\	.	2b-/	.	2ee\	.
.	.	.	.	.	16a/	.	16aa\	.	.	.	.	.	.	.	.	.	.	.	.	.	.	.	.	.	.	.	.	.
8C\	.	.	4cc 4e\	.	16g/	.	16gg\	.	.	.	.	.	.	.	.	.	.	.	.	.	.	.	.	.	.	.	.	.
.	.	.	.	.	16f/JJ)	.	16ff\JJ)	.	.	.	.	.	.	.	.	.	.	.	.	.	.	.	.	.	.	.	.	.
8E\	.	.	.	.	(16f/LL	.	(16ff\LL	.	4C/	pro	.	4B-\	pro	.	4g\	pro	.	4ee\	pro	.	4c/	.	4g\	.	.	.	.	.
.	.	.	.	.	16e/	.	16ee\	.	.	.	.	.	.	.	.	.	.	.	.	.	.	.	.	.	.	.	.	.
8C\J	.	.	8cc 8e\	.	16d/	.	16dd\	.	.	.	.	.	.	.	.	.	.	.	.	.	.	.	.	.	.	.	.	.
.	.	.	.	.	16c/JJ)	.	16cc\JJ)	.	.	.	.	.	.	.	.	.	.	.	.	.	.	.	.	.	.	.	.	.
=16	=16	=16	=16	=16	=16	=16	=16	=16	=16	=16	=16	=16	=16	=16	=16	=16	=16	=16	=16	=16	=16	=16	=16	=16	=16	=16	=16	=16
4F\	x	.	16f\LL	.	16f/LL	.	16ff|\LL	.	4F\	no-	.	4A\	no-	.	4f\	no-	.	4ff\	no-	.	4f\	.	4f\	.	4a|/	.	4ff|\	.
.	.	.	16f\	.	16f/	.	16ff|\	.	.	.	.	.	.	.	.	.	.	.	.	.	.	.	.	.	.	.	.	.
.	.	.	16f\	.	16f/	.	16ff|\	.	.	.	.	.	.	.	.	.	.	.	.	.	.	.	.	.	.	.	.	.
.	.	.	16f\JJ	.	16f/JJ	.	16ff|\JJ	.	.	.	.	.	.	.	.	.	.	.	.	.	.	.	.	.	.	.	.	.
*	*	*	*tremolo	*	*tremolo	*	*tremolo	*	*	*	*	*	*	*	*	*	*	*	*	*	*	*	*	*	*	*	*	*
!LO:TX:b:i:t=unis	!	!	!	!	!	!	!	!	!	!	!	!	!	!	!	!	!	!	!	!	!	!	!	!	!	!	!	!
4c|\	.	.	16c/LL	.	16cc\LL	.	16cc\LL	.	4c\	.	.	4c\	.	.	4cc\	.	.	4cc\	.	.	4c/	.	4c/	.	4cc|/	.	4cc|\	.
.	.	.	16c/	.	16cc\	.	16cc\	.	.	.	.	.	.	.	.	.	.	.	.	.	.	.	.	.	.	.	.	.
.	.	.	16c/	.	16cc\	.	16cc\	.	.	.	.	.	.	.	.	.	.	.	.	.	.	.	.	.	.	.	.	.
.	.	.	16c/JJ	.	16cc\JJ	.	16cc\JJ	.	.	.	.	.	.	.	.	.	.	.	.	.	.	.	.	.	.	.	.	.
!	!	!	!	!	!	!	!	!	!	!	!	!LO:LB:g=original	!	!	!	!	!	!	!	!	!	!	!	!	!	!	!	!
4A|\	.	.	16A/LL	.	16a/LL	.	16a/LL	.	4A\	.	.	4A\	.	.	4a\	.	.	4a\	.	.	4A/	.	4A/	.	4a|/	.	4a|/	.
.	.	.	16A/	.	16a/	.	16a/	.	.	.	.	.	.	.	.	.	.	.	.	.	.	.	.	.	.	.	.	.
.	.	.	16A/	.	16a/	.	16a/	.	.	.	.	.	.	.	.	.	.	.	.	.	.	.	.	.	.	.	.	.
.	.	.	16A/JJ	.	16a/JJ	.	16a/JJ	.	.	.	.	.	.	.	.	.	.	.	.	.	.	.	.	.	.	.	.	.
4F|\	.	.	16F/LL	.	16f/LL	.	16f/LL	.	4F\	.	.	4F/	.	.	4f\	.	.	4f\	.	.	4F/	.	4F/	.	4f|/	.	4f|/	.
.	.	.	16F/	.	16f/	.	16f/	.	.	.	.	.	.	.	.	.	.	.	.	.	.	.	.	.	.	.	.	.
.	.	.	16F/	.	16f/	.	16f/	.	.	.	.	.	.	.	.	.	.	.	.	.	.	.	.	.	.	.	.	.
.	.	.	16F/JJ	.	16f/JJ	.	16f/JJ	.	.	.	.	.	.	.	.	.	.	.	.	.	.	.	.	.	.	.	.	.
*	*	*	*Xtremolo	*	*Xtremolo	*	*Xtremolo	*	*	*	*	*	*	*	*	*	*	*	*	*	*	*	*	*	*	*	*	*
=17	=17	=17	=17	=17	=17	=17	=17	=17	=17	=17	=17	=17	=17	=17	=17	=17	=17	=17	=17	=17	=17	=17	=17	=17	=17	=17	=17	=17
!	!	!	!	!LO:DY:color=red	!	!	!	!	!	!	!	!	!	!	!	!	!	!	!	!	!	!	!	!	!	!	!	!
4C/	.	.	4c\	p	4e/	.	4cc\	.	4C/	-bis	.	4c\	-bis	.	4c\	-bis	.	4cc\	-bis	.	4C/	.	4c/	.	4e/	.	4cc\	.
!	!	!	!	!	!	!LO:DY:color=red	!	!LO:DY:color=red	!	!	!	!	!	!	!	!	!	!	!	!	!	!	!	!	!	!	!	!
4r	.	.	4c\	.	4ff|\	p	4aa|\	p	4r	.	.	4r	.	.	4r	.	.	4r	.	.	4r	.	4r	.	4r	.	4r	.
2r	.	.	4c\	.	4ee|\	.	4gg|\	.	2r	.	.	2r	.	.	2r	.	.	2r	.	.	2r	.	2r	.	2r	.	2r	.
.	.	.	4c\	.	4ff|\	.	4aa|\	.	.	.	.	.	.	.	.	.	.	.	.	.	.	.	.	.	.	.	.	.
!	!	!	!	!	!	!	!	!	!	!	!	!	!	!	!LO:LB:g=original	!	!	!	!	!	!	!	!	!	!	!	!	!
=18	=18	=18	=18	=18	=18	=18	=18	=18	=18	=18	=18	=18	=18	=18	=18	=18	=18	=18	=18	=18	=18	=18	=18	=18	=18	=18	=18	=18
4r	.	.	4c\	.	4ee\	.	4gg\	.	4r	.	.	4r	.	.	4r	.	.	4r	.	.	4r	.	4r	.	4r	.	4r	.
!	!	!LO:DY:color=red:t=piano	!	!	!	!	!	!	!	!	!	!	!	!	!	!	!	!	!	!	!	!	!	!	!	!	!	!
4C/	5 3	p	4r	.	4r	.	4r	.	4C/	o-	.	4G/	o-	.	4e\	o-	.	4g\	o-	.	4c/	.	4g\	.	4ee\	.	4gg\	.
4CC/	.	.	4r	.	4r	.	4r	.	4C/	-ra	.	4G/	-ra	.	4e\	-ra	.	4g\	-ra	.	4c/	.	4g\	.	4ee\	.	4gg\	.
4r	.	.	4c\	.	4ff|\	.	4aa|\	.	4r	.	.	4r	.	.	4r	.	.	4r	.	.	4r	.	4r	.	4r	.	4r	.
=19	=19	=19	=19	=19	=19	=19	=19	=19	=19	=19	=19	=19	=19	=19	=19	=19	=19	=19	=19	=19	=19	=19	=19	=19	=19	=19	=19	=19
!	!	!	!	!LO:DY:color=red:t=forto	!	!LO:DY:color=red:t=f.	!	!	!	!	!	!	!	!	!	!	!	!	!	!	!	!	!	!	!	!	!	!
4r	.	.	4c\	f	4ee|\	f	4gg|\	.	4r	.	.	4r	.	.	4r	.	.	4r	.	.	4r	.	4r	.	4r	.	4r	.
!	!	!	!	!	!	!	!	!LO:DY:color=red	!LO:LB:g=original	!	!	!	!	!	!	!	!	!	!	!	!	!	!	!	!	!	!	!
4F\	.	.	4c\	.	4ff|\	.	4aa|\	f	4F\	pro	.	4c\	pro	.	4f\	pro	.	4a\	pro	.	4c/	.	4c/	.	4ff\	.	4aa\	.
!	!	!	!	!	!	!	!	!	!	!	!	!	!	!	!	!	!	!LO:TX:a:i:t=dolce:color=red	!	!	!	!	!	!	!	!	!	!
4C\	.	.	4c\	.	4ee|\	.	4gg|\	.	4C/	no-	.	2c\	no-	.	(4e\	no-	.	(4g\	no-	.	4c/	.	4c/	.	4ee\	.	4gg\	.
4F\	.	.	4c\	.	4ff|\	.	4aa|\	.	4F\	.	.	.	.	.	4f\)	.	.	4a\)	.	.	4c/	.	4f\	.	4ff\	.	4aa\	.
=20	=20	=20	=20	=20	=20	=20	=20	=20	=20	=20	=20	=20	=20	=20	=20	=20	=20	=20	=20	=20	=20	=20	=20	=20	=20	=20	=20	=20
*	*	*	*	*	*2\right	*	*2\right	*	*	*	*	*	*	*	*	*	*	*	*	*	*	*	*	*	*2\right	*	*	*
4C/	.	.	2c\	.	2ee\	.	2gg\	.	2C/	-bis	.	2c\	-bis	.	2e\	-bis	.	2a\	-bis	.	2C/	.	2c/	.	2ee\	.	2gg\	.
4CC/	.	.	.	.	.	.	.	.	.	.	.	.	.	.	.	.	.	.	.	.	.	.	.	.	.	.	.	.
!	!	!	!LO:TX:b:i:t=dolce:color=red	!	!LO:TX:b:i:t=dolce:color=red	!	!LO:TX:b:i:t=Dolce:color=red	!	!	!	!	!	!	!	!LO:TX:a:i:t=dolce:color=red	!	!	!	!	!	!	!	!	!	!	!	!	!
4r	.	.	(4e\	.	(4cc\	.	(4ee\	.	2r	.	.	2r	.	.	(4e\	Re-	.	(4cc\	Re-	.	2r	.	2r	.	2r	.	2r	.
4r	.	.	4f\)	.	4dd\)	.	4ff\)	.	.	.	.	.	.	.	4f\)	.	.	4dd\)	.	.	.	.	.	.	.	.	.	.
=21	=21	=21	=21	=21	=21	=21	=21	=21	=21	=21	=21	=21	=21	=21	=21	=21	=21	=21	=21	=21	=21	=21	=21	=21	=21	=21	=21	=21
!LO:TX:a:i:t=Solo	!	!LO:DY:color=red:rj	!	!	!	!LO:DY:color=red:t=piano	!	!LO:DY:color=red:t=p.	!LO:TX:a:t=3	!	!	!LO:TX:a:t=3	!	!	!	!	!LO:DY:a:color=red	!	!	!	!LO:TX:a:t=7	!	!LO:TX:a:t=7	!	!LO:TX:a:t=7	!	!LO:TX:a:t=3	!
4C 4CC/	.	p	4.g\	.	4.ee\	p	4.gg\	p	0r	.	.	0r	.	.	4.g\	-gi-	p	4.ee\	-gi-	.	00r	.	00r	.	00r	.	0r	.
4r	.	.	.	.	.	.	.	.	.	.	.	.	.	.	.	.	.	.	.	.	.	.	.	.	.	.	.	.
.	.	.	8e\	.	8cc\	.	8ee\	.	.	.	.	.	.	.	8e\	-na	.	8cc\	-na	.	.	.	.	.	.	.	.	.
!	!	!	!	!	!	!	!	!	!	!	!	!	!	!	!	!	!	!LO:LB:g=original	!	!	!	!	!	!	!	!	!	!
4r	.	.	(8cc\L	.	(8aa\L	.	(8ccc\L	.	.	.	.	.	.	.	8cc\L	Pa-	.	8aa\L	Pa-	.	.	.	.	.	.	.	.	.
.	.	.	8bn\	.	8gg\	.	8bbn\	.	.	.	.	.	.	.	8bn\J	.	.	8gg\J	.	.	.	.	.	.	.	.	.	.
!LO:LB:g=original	!	!	!	!	!	!	!	!	!	!	!	!	!	!	!	!	!	!	!	!	!	!	!	!	!	!	!	!
4C|/	.	.	8a\	.	8ff\	.	8aa\	.	.	.	.	.	.	.	8a\	-tri-	.	8ff\	-tri-	.	.	.	.	.	.	.	.	.
.	.	.	8g\J)	.	8ee\J)	.	8gg\J)	.	.	.	.	.	.	.	8g\	-ar-	.	8ee\	-ar-	.	.	.	.	.	.	.	.	.
=22	=22	=22	=22	=22	=22	=22	=22	=22	=22	=22	=22	=22	=22	=22	=22	=22	=22	=22	=22	=22	=22	=22	=22	=22	=22	=22	=22	=22
4F|\	.	.	(4a\	.	(4ff\	.	4aa\	.	.	.	.	.	.	.	4a\	-cha-	.	4ff\	-cha-	.	.	.	.	.	.	.	.	.
4C|/	.	.	4g\)	.	4ee\)	.	4gg\	.	.	.	.	.	.	.	4g\	-rum	.	4ee,<\	-rum	.	.	.	.	.	.	.	.	.
2r	.	.	(4e\	.	(4cc\	.	(4ee\	.	.	.	.	.	.	.	(4e\	o-	.	(4cc\	o-	.	.	.	.	.	.	.	.	.
.	.	.	4f\)	.	4dd\)	.	4ff\)	.	.	.	.	.	.	.	4f\)	.	.	4dd\)	.	.	.	.	.	.	.	.	.	.
=23	=23	=23	=23	=23	=23	=23	=23	=23	=23	=23	=23	=23	=23	=23	=23	=23	=23	=23	=23	=23	=23	=23	=23	=23	=23	=23	=23	=23
4C|/	.	.	4.g\	.	4.ee\	.	4.gg\	.	1r	.	.	1r	.	.	4.g\	-ra	.	4.ee,<\	-ra	.	.	.	.	.	.	.	1r	.
4r	.	.	.	.	.	.	.	.	.	.	.	.	.	.	.	.	.	.	.	.	.	.	.	.	.	.	.	.
.	.	.	8e\	.	8cc\	.	8ee\	.	.	.	.	.	.	.	8e\	o-	.	8cc\	o-	.	.	.	.	.	.	.	.	.
4F|\	.	.	(8a\L	.	(8ff\L	.	(8aa\L	.	.	.	.	.	.	.	8a\L	-ra	.	8ff\L	-ra	.	.	.	.	.	.	.	.	.
.	.	.	8g\	.	8ee\	.	8gg\	.	.	.	.	.	.	.	8g\J	.	.	8ee\J	.	.	.	.	.	.	.	.	.	.
4D|\	.	.	8f\	.	8dd\	.	8ff\	.	.	.	.	.	.	.	8f\L	pro	.	8dd\L	pro	.	.	.	.	.	.	.	.	.
.	.	.	8e\J)	.	8cc\J)	.	8ee\J)	.	.	.	.	.	.	.	8e\J	.	.	8cc\J	.	.	.	.	.	.	.	.	.	.
=24	=24	=24	=24	=24	=24	=24	=24	=24	=24	=24	=24	=24	=24	=24	=24	=24	=24	=24	=24	=24	=24	=24	=24	=24	=24	=24	=24	=24
!	!	!	!	!	!	!	!	!	!LO:TX:a:i:t=Solo	!	!	!	!	!	!	!	!	!	!	!	!	!	!	!	!	!	!	!LO:DY:t=piano:color=red
4G|\	.	.	(4e\	.	(4cc\	.	(4ee\	.	2r	.	.	2r	.	.	4e\	no-	.	4cc\	no-	.	.	.	.	.	.	.	2r	p
4GG|/	.	.	4d\)	.	4bn\)	.	4dd\)	.	.	.	.	.	.	.	4d\	-bis	.	4b-\	-bis	.	.	.	.	.	.	.	.	.
!	!	!	!LO:LB:g=original	!	!LO:LB:g=original	!	!	!	!LO:TX:a:i:t=dolce:color=red	!	!	!LO:TX:a:i:t=dolce:color=red	!	!	!	!	!	!	!	!	!	!	!	!	!	!	!LO:TX:a:i:t=Dolce	!
2r	.	.	(4e\	.	(4cc\	.	(4ee\	.	(4E\	Re-	.	(4c\	Re-	.	2r	.	.	2r	.	.	.	.	.	.	.	.	(4e/	.
.	.	.	4f\)	.	4dd\)	.	4ff\)	.	4F\)	.	.	4d\)	.	.	.	.	.	.	.	.	.	.	.	.	.	.	4f/)	.
!	!	!	!	!	!	!	!	!	!	!	!	!	!	!	!	!	!	!	!	!	!	!	!	!	!	!	!LO:LB:g=original	!
=25	=25	=25	=25	=25	=25	=25	=25	=25	=25	=25	=25	=25	=25	=25	=25	=25	=25	=25	=25	=25	=25	=25	=25	=25	=25	=25	=25	=25
!	!	!	!	!	!	!	!	!	!	!	!	!	!	!	!LO:TX:a:t=5	!	!	!	!	!	!	!	!	!	!	!	!	!
4C|/	.	.	4.g\	.	4.ee\	.	4.gg\	.	4.G\	-gi-	.	4.e\	-gi-	.	00r	.	.	0r	.	.	0r	.	0r	.	0r	.	4.g/	.
4r	.	.	.	.	.	.	.	.	.	.	.	.	.	.	.	.	.	.	.	.	.	.	.	.	.	.	.	.
.	.	.	8e\	.	8cc\	.	8ee\	.	8E,<\	-na	.	8c\	-na	.	.	.	.	.	.	.	.	.	.	.	.	.	8e/	.
4r	.	.	8cc\L	.	(8aa\L	.	(8ccc\L	.	8c\L	Pro-	.	8a\L	Pro-	.	.	.	.	.	.	.	.	.	.	.	.	.	(8cc/L	.
.	.	.	8bn\	.	8gg\	.	8bbn\	.	8Bn\J	.	.	8g\J	.	.	.	.	.	.	.	.	.	.	.	.	.	.	8b-/	.
4C|/	.	.	8a\	.	8ff\	.	8aa\	.	8A\L	-phe-	.	8f\L	-phe-	.	.	.	.	.	.	.	.	.	.	.	.	.	8a/	.
.	.	.	8g\J	.	8ee\J)	.	8gg\J)	.	8G\J	.	.	8e\J	.	.	.	.	.	.	.	.	.	.	.	.	.	.	8g/J)	.
!	!	!	!	!	!	!	!LO:LB:g=original	!	!	!	!	!	!	!	!	!	!	!	!	!	!	!	!	!	!	!	!	!
=26	=26	=26	=26	=26	=26	=26	=26	=26	=26	=26	=26	=26	=26	=26	=26	=26	=26	=26	=26	=26	=26	=26	=26	=26	=26	=26	=26	=26
4F|\	.	.	(4a\	.	(4ff\	.	(4aa\	.	4A\	-ta-	.	4f\	-ta-	.	.	.	.	.	.	.	.	.	.	.	.	.	(4a/	.
4C|/	.	.	4g\)	.	4ee\)	.	4gg\)	.	4G\	-rum	.	4e\	-rum	.	.	.	.	.	.	.	.	.	.	.	.	.	4g/)	.
2r	.	.	(4e\	.	(4cc\	.	(4ee\	.	(4E\	o-	.	(4c\	o-	.	.	.	.	.	.	.	.	.	.	.	.	.	(4e/	.
.	.	.	4f\)	.	4dd\)	.	4ff\)	.	4F\)	.	.	4d\)	.	.	.	.	.	.	.	.	.	.	.	.	.	.	4f/)	.
=27	=27	=27	=27	=27	=27	=27	=27	=27	=27	=27	=27	=27	=27	=27	=27	=27	=27	=27	=27	=27	=27	=27	=27	=27	=27	=27	=27	=27
!	!	!	!	!	!	!	!	!LO:DY:color=red:t=mf.	!	!	!	!	!	!	!	!	!	!	!	!	!	!	!	!	!	!	!	!
4C|/	.	.	4g\	.	4ee\	.	8gg\L	mf	4G\	-ra	.	4e\	-ra	.	.	.	.	1r	.	.	1r	.	1r	.	1r	.	(8g/L	.
.	.	.	.	.	.	.	16qqaa/LL	.	.	.	.	.	.	.	.	.	.	.	.	.	.	.	.	.	.	.	.	.
.	.	.	.	.	.	.	16qqbb-/JJ	.	.	.	.	.	.	.	.	.	.	.	.	.	.	.	.	.	.	.	.	.
.	.	.	.	.	.	.	8ccc\J	.	.	.	.	.	.	.	.	.	.	.	.	.	.	.	.	.	.	.	8cc/J)	.
!	!	!	!	!	!	!	!	!	!	!	!	!LO:LB:g=original	!	!	!	!	!	!	!	!	!	!	!	!	!	!	!	!
4F|\	.	.	4a\	.	8ff\L	.	(16bbn\LL	.	8A\L	pro	.	8f\L	pro	.	.	.	.	.	.	.	.	.	.	.	.	.	(16bn/LL	.
.	.	.	.	.	.	.	16aa\	.	.	.	.	.	.	.	.	.	.	.	.	.	.	.	.	.	.	.	16a/	.
.	.	.	.	.	(16ee\L	.	16gg\	.	16G\L	.	.	16e\L	.	.	.	.	.	.	.	.	.	.	.	.	.	.	16g/	.
.	.	.	.	.	16dd\JJ)	.	16ff\JJ)	.	16F\JJ	.	.	16d\JJ	.	.	.	.	.	.	.	.	.	.	.	.	.	.	16f/JJ)	.
4G|\	.	.	4g\	.	4cc\	.	4ee\	.	4E\	no-	.	(4c\	no-	.	.	.	.	.	.	.	.	.	.	.	.	.	4e/	.
!	!	!	!	!	!	!	!	!	!	!	!	!	!	!	!	!	!	!	!	!	!	!	!	!	!LO:TX:b:i:t=V&colon; S&colon;:rj	!	!	!
4GG|/	n	.	4g\	.	4bn\	.	4dd\	.	4D\	.	.	4Bn\)	.	.	.	.	.	.	.	.	.	.	.	.	.	.	4d/	.
!	!	!	!	!	!	!	!	!	!	!	!	!	!	!	!	!	!	!	!	!	!	!	!	!	!LO:PB:g=original	!	!	!
=28	=28	=28	=28	=28	=28	=28	=28	=28	=28	=28	=28	=28	=28	=28	=28	=28	=28	=28	=28	=28	=28	=28	=28	=28	=28	=28	=28	=28
!	!	!LO:DY:color=red:t=p&colon;	!	!	!	!	!	!LO:DY:color=red	!	!	!	!	!	!	!	!	!	!	!	!LO:DY:a:color=red	!	!LO:DY:a:color=red	!	!LO:DY:color=red	!	!	!	!LO:DY:color=red
8C/L	.	p	4g\	.	4e/	.	4cc\	p	4E\	-bis	.	4c\	-bis	.	.	.	.	4cc\	Re-	f	4C/	p	4c/	p	4e/	.	4cc\	f
8CC/	.	.	.	.	.	.	.	.	.	.	.	.	.	.	.	.	.	.	.	.	.	.	.	.	.	.	.	.
.	.	.	.	.	.	.	16qqdd/	.	.	.	.	.	.	.	.	.	.	8qqdd/	.	.	.	.	.	.	.	.	.	.
!	!	!	!	!LO:DY:color=red	!	!	!	!	!	!	!	!	!	!	!	!	!	!	!	!	!	!	!	!	!	!	!	!
8C/	1	.	8c|\L	p	4r	.	8cc\L	.	4r	.	.	4r	.	.	.	.	.	8cc\L	.	.	4r	.	4r	.	4r	.	4r	.
8CC/J	.	.	8c|\J	.	.	.	(16bn\L	.	.	.	.	.	.	.	.	.	.	16bn\L	.	.	.	.	.	.	.	.	.	.
.	.	.	.	.	.	.	16cc\JJ)	.	.	.	.	.	.	.	.	.	.	16cc\JJ	.	.	.	.	.	.	.	.	.	.
*	*	*	*tremolo	*	*	*	*	*	*	*	*	*	*	*	*	*	*	*	*	*	*	*	*	*	*	*	*	*
!	!	!	!LO:TX:a:t=''''	!	!	!	!	!	!	!	!	!	!	!	!	!	!	!	!	!	!	!	!	!	!	!	!	!
8C/L	2	.	8c|\L	.	2r	.	8dd|\L	.	2r	.	.	2r	.	.	.	.	.	4dd\	-gi-	.	2r	.	2r	.	2r	.	2r	.
8CC/	.	.	8c|\	.	.	.	8dd|\	.	.	.	.	.	.	.	.	.	.	.	.	.	.	.	.	.	.	.	.	.
8C/	3	.	8c|\	.	.	.	8ee|\	.	.	.	.	.	.	.	.	.	.	8ee\	-na	.	.	.	.	.	.	.	.	.
8CC/J	.	.	8c|\J	.	.	.	8ee|\J	.	.	.	.	.	.	.	.	.	.	8ee\	A-	.	.	.	.	.	.	.	.	.
=29	=29	=29	=29	=29	=29	=29	=29	=29	=29	=29	=29	=29	=29	=29	=29	=29	=29	=29	=29	=29	=29	=29	=29	=29	=29	=29	=29	=29
!	!	!	!LO:TX:a:t=''''	!	!LO:TX:a:t=1	!	!	!	!LO:TX:a:t=3	!	!	!LO:TX:a:t=3	!	!	!	!	!	!	!	!	!	!	!	!	!LO:TX:a:t=1	!	!LO:TX:a:t=1	!
(8C/L	8	.	8c|\L	.	1r	.	8cc|\L	.	0r	.	.	0r	.	.	1r	.	.	4cc\	-poſ-	.	2r	.	2r	.	1r	.	1r	.
8CC/)	.	.	8c|\	.	.	.	8cc|\	.	.	.	.	.	.	.	.	.	.	.	.	.	.	.	.	.	.	.	.	.
(8C/	5	.	8c|\	.	.	.	8g|\	.	.	.	.	.	.	.	.	.	.	4g\	-to-	.	.	.	.	.	.	.	.	.
8CC/J)	.	.	8c|\J	.	.	.	8g|\J	.	.	.	.	.	.	.	.	.	.	.	.	.	.	.	.	.	.	.	.	.
!	!	!	!LO:TX:a:t=''''	!	!	!	!	!	!	!	!	!	!	!	!	!	!	!	!	!	!	!LO:DY:a:color=red	!	!LO:DY:color=red	!	!	!	!
(8C/L	1	.	8c|\L	.	.	.	8cc|\L	.	.	.	.	.	.	.	.	.	.	4cc\	-lo-	.	4C/	p	4c/	p	.	.	.	.
8CC/)	.	.	8c|\	.	.	.	8cc|\	.	.	.	.	.	.	.	.	.	.	.	.	.	.	.	.	.	.	.	.	.
(8C/	2	.	8c|\	.	.	.	8dd|\	.	.	.	.	.	.	.	.	.	.	4dd\	-rum	.	4C/	.	4c/	.	.	.	.	.
8CC/J)	.	.	8c|\J	.	.	.	8dd|\J	.	.	.	.	.	.	.	.	.	.	.	.	.	.	.	.	.	.	.	.	.
!	!	!	!	!	!	!	!	!	!	!	!	!	!	!	!LO:LB:g=original	!	!	!LO:LB:g=original	!	!	!	!	!	!	!	!	!	!
=30	=30	=30	=30	=30	=30	=30	=30	=30	=30	=30	=30	=30	=30	=30	=30	=30	=30	=30	=30	=30	=30	=30	=30	=30	=30	=30	=30	=30
!	!	!LO:HP:t=cres.:color=red	!	!LO:HP:t=cres:color=red	!	!LO:DY:color=red	!	!LO:HP:t=cres&colon;:color=red	!	!	!	!	!	!	!LO:N:vis=4.	!	!LO:DY:b:color=red	!	!	!	!	!	!	!	!	!	!	!
(8C/L	3 1	<	8c\L	<	4cc\	p	4ee\	<	.	.	.	.	.	.	4cc\	Re-	f	4ee\	Re-	.	4C/	.	4c/	.	4cc\	.	4ee\	.
8CC/)	.	.	8c\	.	.	.	.	.	.	.	.	.	.	.	.	.	.	.	.	.	.	.	.	.	.	.	.	.
.	.	.	.	.	16qqdd/	.	16qqff/	.	.	.	.	.	.	.	8qqdd/	.	.	16qqff/	.	.	.	.	.	.	.	.	.	.
(8C/	4_ 2_	.	8c\	.	8cc\L	.	8ee\L	.	.	.	.	.	.	.	8cc\L	.	.	8ee\L	.	.	4r	.	4r	.	4r	.	4r	.
8CC/J)	.	.	8c\J	.	16bn\L	.	(16dd\L	.	.	.	.	.	.	.	16bn\L	.	.	16dd\L	.	.	.	.	.	.	.	.	.	.
.	.	.	.	.	16cc\JJ	.	16ee\JJ)	.	.	.	.	.	.	.	16cc\JJ	.	.	16ee\JJ	.	.	.	.	.	.	.	.	.	.
8C/L	.	.	8c\L	.	8dd|\L	.	8ff|\L	.	.	.	.	.	.	.	4dd\	-gi-	.	4ff\	-gi-	.	2r	.	4r	.	2r	.	2r	.
8CC/	.	.	8c\	.	8dd|\	.	8ff|\	.	.	.	.	.	.	.	.	.	.	.	.	.	.	.	.	.	.	.	.	.
8C/	5 3	.	8c\	.	8ee|\	.	8gg|\	.	.	.	.	.	.	.	8ee,<\	-na	.	8gg\	-na	.	.	.	4r	.	.	.	.	.
8CC/J	.	.	8c\J	.	8ee|\J	.	8gg|\J	.	.	.	.	.	.	.	8ee\	A-	.	8gg\	A-	.	.	.	.	.	.	.	.	.
!LO:LB:g=original	!	!	!	!	!	!	!	!	!	!	!	!	!	!	!	!	!	!	!	!	!	!	!	!	!	!	!	!
=31	=31	=31	=31	=31	=31	=31	=31	=31	=31	=31	=31	=31	=31	=31	=31	=31	=31	=31	=31	=31	=31	=31	=31	=31	=31	=31	=31	=31
!	!	!	!	!	!	!	!	!	!	!	!	!	!	!	!	!	!	!	!	!	!	!	!	!	!LO:TX:a:t=1	!	!LO:TX:a:t=1	!
8C/L	3 1	.	8c\L	.	8cc|\L	.	8ee|\L	.	1r	.	.	1r	.	.	4cc\	-po-	.	4ee\	-Poſ-	.	2r	.	2r	.	1r	.	1r	.
8CC/	.	.	8c\	.	8cc|\	.	8ee|\	.	.	.	.	.	.	.	.	.	.	.	.	.	.	.	.	.	.	.	.	.
8C/	8 5	.	8c\	.	8g|\	.	8cc|\	.	.	.	.	.	.	.	4g\	-sto-	.	4cc\	-to-	.	.	.	.	.	.	.	.	.
8CC/J	.	.	8c\J	.	8g|\J	.	8cc|\J	.	.	.	.	.	.	.	.	.	.	.	.	.	.	.	.	.	.	.	.	.
8C/L	3 1	.	8c\L	.	8cc|\L	.	8ee|\L	.	.	.	.	.	.	.	4cc\	-lo-	.	4ee\	-lo-	.	4C/	.	4c/	.	.	.	.	.
8CC/	.	.	8c\	.	8cc|\	.	8ee|\	.	.	.	.	.	.	.	.	.	.	.	.	.	.	.	.	.	.	.	.	.
8C/	4 2	.	8c\	.	8dd|\	.	8ff|\	.	.	.	.	.	.	.	4dd\	-rum	.	4ff\	-rum	.	4C/	.	4c/	.	.	.	.	.
8CC/J	.	.	8c\J	.	8dd|\J	.	8ff|\J	.	.	.	.	.	.	.	.	.	.	.	.	.	.	.	.	.	.	.	.	.
*	*	*	*Xtremolo	*	*	*	*	*	*	*	*	*	*	*	*	*	*	*	*	*	*	*	*	*	*	*	*	*
=32	=32	=32	=32	=32	=32	=32	=32	=32	=32	=32	=32	=32	=32	=32	=32	=32	=32	=32	=32	=32	=32	=32	=32	=32	=32	=32	=32	=32
!	!	!LO:DY:color=red:t=fort	!	!LO:DY:color=red	!	!LO:DY:color=red:t=forto	!	!LO:DY:color=red:t=fort	!	!	!LO:DY:a:color=red	!	!	!LO:DY:a:color=red	!	!	!	!	!	!	!	!LO:DY:a:color=red:t=fort	!	!LO:DY:color=red	!	!	!	!LO:DY:color=red
8E\L	5 3	f	8cc\	ff	8ee\	f	4gg\	f	4C/	o-	f	4G/	o-	f	4cc\	o-	.	4ee\	o-	.	4c/	f	4g\	f	2ee\	.	2gg\	f
8C\	.	.	4cc\	.	4ee\	.	.	.	.	.	.	.	.	.	.	.	.	.	.	.	.	.	.	.	.	.	.	.
8E\	.	.	.	.	.	.	(16bbn\LL	.	4r	.	.	4r	.	.	4r	.	.	4r	.	.	8c/L	.	8g\L	.	.	.	.	.
.	.	.	.	.	.	.	16ccc\)	.	.	.	.	.	.	.	.	.	.	.	.	.	.	.	.	.	.	.	.	.
8C\J	.	.	4cc\	.	8ee\	.	(16bb\	.	.	.	.	.	.	.	.	.	.	.	.	.	8c/J	.	8g\J	.	.	.	.	.
.	.	.	.	.	.	.	16ccc\JJ)	.	.	.	.	.	.	.	.	.	.	.	.	.	.	.	.	.	.	.	.	.
8F\L	3	.	.	.	8ff\	.	4aa\	.	4F\	.	.	4c\	.	.	4a\	.	.	4ff\	.	.	4f\	.	4a\	.	2ff\	.	2aa\	.
8C\	.	.	4cc\	.	4ff\	.	.	.	.	.	.	.	.	.	.	.	.	.	.	.	.	.	.	.	.	.	.	.
8F\	.	.	.	.	.	.	(16bbn\LL	.	4r	.	.	4r	.	.	4r	.	.	4r	.	.	8f\L	.	8a\L	.	.	.	.	.
.	.	.	.	.	.	.	16ccc\)	.	.	.	.	.	.	.	.	.	.	.	.	.	.	.	.	.	.	.	.	.
8C\J	.	.	8cc\	.	8ff\	.	(16bb\	.	.	.	.	.	.	.	.	.	.	.	.	.	8f\J	.	8a\J	.	.	.	.	.
.	.	.	.	.	.	.	16ccc\JJ)	.	.	.	.	.	.	.	.	.	.	.	.	.	.	.	.	.	.	.	.	.
=33	=33	=33	=33	=33	=33	=33	=33	=33	=33	=33	=33	=33	=33	=33	=33	=33	=33	=33	=33	=33	=33	=33	=33	=33	=33	=33	=33	=33
8E\L	.	.	8cc\	.	8ee\	.	4gg\	.	4C/	-ra	.	4c\	-ra	.	4g\	-ra	.	4ee\	-ra	.	4c/	.	4g\	.	2ee\	.	2gg\	.
8C\	.	.	4cc\	.	4ee\	.	.	.	.	.	.	.	.	.	.	.	.	.	.	.	.	.	.	.	.	.	.	.
!	!	!	!	!	!	!	!LO:SIC:v:s=(16bbn\LL	!	!	!	!	!	!	!	!	!	!	!	!	!	!	!	!	!	!	!	!	!
8E\	.	.	.	.	.	.	(16bb-\LL	.	4r	.	.	4r	.	.	4r	.	.	4r	.	.	8c/L	.	8g\L	.	.	.	.	.
.	.	.	.	.	.	.	16ccc\)	.	.	.	.	.	.	.	.	.	.	.	.	.	.	.	.	.	.	.	.	.
!	!	!	!	!	!	!	!LO:SIC:v:s=(16bb\	!	!	!	!	!	!	!	!	!	!	!	!	!	!	!	!	!	!	!	!	!
8C\J	.	.	4cc\	.	8ee\	.	(16bb-\	.	.	.	.	.	.	.	.	.	.	.	.	.	8c/J	.	8g\J	.	.	.	.	.
.	.	.	.	.	.	.	16ccc\JJ)	.	.	.	.	.	.	.	.	.	.	.	.	.	.	.	.	.	.	.	.	.
!	!	!	!	!	!	!	!LO:LB:g=original	!	!	!	!	!	!	!	!	!	!	!	!	!	!	!	!	!	!	!	!	!
8F\L	.	.	.	.	8ff\	.	4aa\	.	4F\	o-	.	4c\	o-	.	4a\	o-	.	4ff\	o-	.	4f\	.	4a\	.	2ff\	.	2aa\	.
8C\	.	.	4cc\	.	4ff\	.	.	.	.	.	.	.	.	.	.	.	.	.	.	.	.	.	.	.	.	.	.	.
!	!	!	!	!	!	!	!LO:SIC:v:s=(16bb\LL	!	!	!	!	!	!	!	!	!	!	!	!	!	!	!	!	!	!	!	!	!
8F\	.	.	.	.	.	.	(16bb-\LL	.	4r	.	.	4r	.	.	4r	.	.	4r	.	.	8f\L	.	8a\L	.	.	.	.	.
.	.	.	.	.	.	.	16ccc\)	.	.	.	.	.	.	.	.	.	.	.	.	.	.	.	.	.	.	.	.	.
!	!	!	!	!	!	!	!LO:SIC:v:s=(16bb\	!	!	!	!	!	!	!	!	!	!	!	!	!	!	!	!	!	!	!	!	!
8C\J	.	.	8cc\	.	8ff\	.	(16bb-\	.	.	.	.	.	.	.	.	.	.	.	.	.	8f\J	.	8a\J	.	.	.	.	.
.	.	.	.	.	.	.	16ccc\JJ)	.	.	.	.	.	.	.	.	.	.	.	.	.	.	.	.	.	.	.	.	.
!	!	!	!LO:LB:g=original	!	!LO:LB:g=original	!	!	!	!LO:LB:g=original	!	!	!	!	!	!	!	!	!	!	!	!LO:LB:g=original	!	!	!	!	!	!	!
=34	=34	=34	=34	=34	=34	=34	=34	=34	=34	=34	=34	=34	=34	=34	=34	=34	=34	=34	=34	=34	=34	=34	=34	=34	=34	=34	=34	=34
!	!	!	!	!	!	!LO:DY:color=red	!	!LO:DY:color=red	!	!	!	!	!	!	!	!	!	!	!	!	!	!	!	!	!	!	!	!
4C 4CC/	.	.	4g\	.	8ee\L	p	8gg\L	p	4C/	-ra	.	4c\	-ra	.	4g\	-ra	.	4ee\	-ra	.	4c/	.	4g\	.	4ee\	.	4gg\	.
.	.	.	.	.	8ccc\	.	8eee\	.	.	.	.	.	.	.	.	.	.	.	.	.	.	.	.	.	.	.	.	.
4r	.	.	4r	.	8bbn\	.	8ddd\	.	4r	.	.	4r	.	.	4r	.	.	4r	.	.	4r	.	4r	.	4r	.	4r	.
.	.	.	.	.	8aa\J	.	8ccc\J	.	.	.	.	.	.	.	.	.	.	.	.	.	.	.	.	.	.	.	.	.
2r	.	.	2r	.	8gg\L	.	8bbn\L	.	2r	.	.	2r	.	.	2r	.	.	2r	.	.	2r	.	2r	.	2r	.	2r	.
.	.	.	.	.	8ff\	.	8aa\	.	.	.	.	.	.	.	.	.	.	.	.	.	.	.	.	.	.	.	.	.
.	.	.	.	.	8ee\	.	8gg\	.	.	.	.	.	.	.	.	.	.	.	.	.	.	.	.	.	.	.	.	.
.	.	.	.	.	8dd\J	.	8ff\J	.	.	.	.	.	.	.	.	.	.	.	.	.	.	.	.	.	.	.	.	.
!	!	!	!	!	!	!	!	!	!	!	!	!	!	!	!	!	!	!	!	!	!	!	!LO:LB:g=original	!	!	!	!	!
=35	=35	=35	=35	=35	=35	=35	=35	=35	=35	=35	=35	=35	=35	=35	=35	=35	=35	=35	=35	=35	=35	=35	=35	=35	=35	=35	=35	=35
!	!	!	!LO:TX:t=P:problem:mixed beam	!	!	!LO:DY:color=red	!	!LO:DY:color=red	!	!	!	!	!	!	!	!	!	!	!	!	!	!	!	!	!	!	!	!
4C/	.	.	8G/L	.	8cc\L	f	(8ee\L	f	4r	.	.	4r	.	.	4r	.	.	4r	.	.	4c/	.	4g\	.	(4cc\	.	(4ee\	.
.	.	.	8g\	.	8g\	.	8cc\)	.	.	.	.	.	.	.	.	.	.	.	.	.	.	.	.	.	.	.	.	.
4GG/	.	.	8bn\	.	8dd\	.	(8ff\	.	4G\	pro	.	4G/	pro	.	4f\	pro	.	4dd\	pro	.	4g\	.	4g\	.	4dd\)	.	4ff\)	.
.	.	.	8g\J	.	8g\J	.	8dd\J)	.	.	.	.	.	.	.	.	.	.	.	.	.	.	.	.	.	.	.	.	.
!	!	!	!LO:TX:t=P:problem:mixed beam	!	!	!	!	!	!	!	!	!	!	!	!	!	!	!	!	!	!	!	!	!	!	!	!	!
4CC/	.	.	8G/L	.	8cc\L	.	(8ee\L	.	4C/	no-	.	2G/	no-	.	4e\	no-	.	(4cc\	no-	.	4c/	.	4g\	.	(4cc\	.	(4ee\	.
.	.	.	8g\	.	8g\	.	8cc\)	.	.	.	.	.	.	.	.	.	.	.	.	.	.	.	.	.	.	.	.	.
4GG/	.	.	8b\	.	8dd\	.	(8ff\	.	4GG/	.	.	.	.	.	4f\	.	.	4dd\)	.	.	4g\	.	4g\	.	4dd\)	.	4ff\)	.
.	.	.	8g\J	.	8g\J	.	8dd\J)	.	.	.	.	.	.	.	.	.	.	.	.	.	.	.	.	.	.	.	.	.
!	!	!	!	!	!	!	!	!	!	!	!	!	!	!	!	!	!	!	!	!	!	!	!	!	!	!	!LO:LB:g=original	!
=36	=36	=36	=36	=36	=36	=36	=36	=36	=36	=36	=36	=36	=36	=36	=36	=36	=36	=36	=36	=36	=36	=36	=36	=36	=36	=36	=36	=36
4C/	.	.	4g\	.	4e/	.	4cc\	.	2C/	-bis	.	2G/	-bis	.	2e\	-bis	.	2cc\	-bis	.	4c/	.	4g\	.	4cc\	.	4ee\	.
4CC/	.	.	4g\	.	4ee\	.	4ccc\	.	.	.	.	.	.	.	.	.	.	.	.	.	4c/	.	4g\	.	4cc\	.	4ee\	.
2r	.	.	4g\	.	4ee\	.	4ccc\	.	2r	.	.	2r	.	.	2r	.	.	2r	.	.	4c/	.	4g\	.	4cc\	.	4ee\	.
.	.	.	4r	.	4r	.	4r	.	.	.	.	.	.	.	.	.	.	.	.	.	4r	.	4r	.	4r	.	4r	.
=37:|!	=37:|!	=37:|!	=37:|!	=37:|!	=37:|!	=37:|!	=37:|!	=37:|!	=37:|!	=37:|!	=37:|!	=37:|!	=37:|!	=37:|!	=37:|!	=37:|!	=37:|!	=37:|!	=37:|!	=37:|!	=37:|!	=37:|!	=37:|!	=37:|!	=37:|!	=37:|!	=37:|!	=37:|!
*>B	*>B	*>B	*>B	*>B	*>B	*>B	*>B	*>B	*>B	*>B	*>B	*>B	*>B	*>B	*>B	*>B	*>B	*>B	*>B	*>B	*>B	*>B	*>B	*>B	*>B	*>B	*>B	*>B
*	*	*	*	*	*	*	*^	*	*	*	*	*	*	*	*	*	*	*	*	*	*	*	*	*	*	*	*	*
*	*	*	*	*	*	*	*	*cue	*	*	*	*	*	*	*	*	*	*	*	*	*	*	*	*	*	*	*	*	*
!LO:TX:a:t=i	!	!	!LO:TX:a:t=i	!	!LO:TX:a:t=i	!	!LO:TX:a:t=i	!	!	!	!	!LO:DY:b:color=red	!	!	!	!	!	!	!	!	!	!	!	!LO:TX:a:t=1	!	!LO:TX:a:t=1	!	!LO:TX:a:t=1	!
1r	.	.	1r	.	1r	.	1r	2cc/	.	2c\	Re-	f	2c\	Re-	.	2cc\	Re-	.	2cc\	Re-	.	1r	.	1r	.	1r	.	1r	.
.	.	.	.	.	.	.	.	4cc/	.	4c\	-gi-	.	4c\	-gi-	.	4cc\	-gi-	.	4cc\	-gi-	.	.	.	.	.	.	.	.	.
.	.	.	.	.	.	.	.	4cc/	.	4c\	-na	.	4c\	-na	.	4cc\	-na	.	4cc\	-na	.	.	.	.	.	.	.	.	.
*	*	*	*	*	*	*	*	*Xcue	*	*	*	*	*	*	*	*	*	*	*	*	*	*	*	*	*	*	*	*	*
*	*	*	*	*	*	*	*v	*v	*	*	*	*	*	*	*	*	*	*	*	*	*	*	*	*	*	*	*	*	*
!	!	!	!	!	!	!	!	!	!	!	!	!	!	!	!	!	!	!LO:LB:g=original	!	!	!	!	!	!	!	!	!	!
=38	=38	=38	=38	=38	=38	=38	=38	=38	=38	=38	=38	=38	=38	=38	=38	=38	=38	=38	=38	=38	=38	=38	=38	=38	=38	=38	=38	=38
!	!	!LO:DY:color=red	!	!	!	!LO:DY:color=red	!	!LO:DY:color=red:t=forto	!	!	!	!	!	!	!	!	!	!	!	!	!	!LO:DY:color=red	!	!	!	!	!	!
4E\	.	f	8r	.	8r	f	(16e\LL	f	2G\	A-	.	2e\	A-	.	2b-X\	A-	.	2cc\	A-	.	2c/	f	2g\	.	(2g/	.	2ee\	.
.	.	.	.	.	.	.	16cc\	.	.	.	.	.	.	.	.	.	.	.	.	.	.	.	.	.	.	.	.	.
!	!	!	!	!LO:DY:color=red	!	!	!	!	!	!	!	!	!	!	!	!	!	!	!	!	!	!	!	!	!	!	!	!
.	.	.	8e|\L	f	8g|/L	.	16bb-X\	.	.	.	.	.	.	.	.	.	.	.	.	.	.	.	.	.	.	.	.	.
.	.	.	.	.	.	.	16cc\JJ)	.	.	.	.	.	.	.	.	.	.	.	.	.	.	.	.	.	.	.	.	.
4C\	.	.	(8g\	.	(8b-X/	.	(16e\LL	.	.	.	.	.	.	.	.	.	.	.	.	.	.	.	.	.	.	.	.	.
.	.	.	.	.	.	.	16cc\	.	.	.	.	.	.	.	.	.	.	.	.	.	.	.	.	.	.	.	.	.
.	.	.	8e\J)	.	8g/J)	.	16bb-\	.	.	.	.	.	.	.	.	.	.	.	.	.	.	.	.	.	.	.	.	.
.	.	.	.	.	.	.	16cc\JJ)	.	.	.	.	.	.	.	.	.	.	.	.	.	.	.	.	.	.	.	.	.
!	!	!	!	!	!	!	!	!	!	!	!	!	!	!	!LO:LB:g=original	!	!	!	!	!	!	!	!	!	!	!	!	!
4F\	.	.	8r	.	8r	.	(16f\LL	.	4F\	-po-	.	4f\	-po-	.	4a\	-po-	.	4cc\	-po-	.	2f\	.	2a\	.	2a/)	.	2ff\	.
.	.	.	.	.	.	.	16cc\	.	.	.	.	.	.	.	.	.	.	.	.	.	.	.	.	.	.	.	.	.
.	.	.	8f|\L	.	8a|/L	.	16aa\	.	.	.	.	.	.	.	.	.	.	.	.	.	.	.	.	.	.	.	.	.
.	.	.	.	.	.	.	16cc\JJ)	.	.	.	.	.	.	.	.	.	.	.	.	.	.	.	.	.	.	.	.	.
4A\	.	.	(8a\	.	(8cc/	.	(16f\LL	.	4F\	-ſto-	.	4f\	-ſto-	.	4a\	-sto-	.	4cc\	-sto-	.	.	.	.	.	.	.	.	.
.	.	.	.	.	.	.	16cc\	.	.	.	.	.	.	.	.	.	.	.	.	.	.	.	.	.	.	.	.	.
.	.	.	8f\J)	.	8a/J)	.	16aa\	.	.	.	.	.	.	.	.	.	.	.	.	.	.	.	.	.	.	.	.	.
.	.	.	.	.	.	.	16cc\JJ)	.	.	.	.	.	.	.	.	.	.	.	.	.	.	.	.	.	.	.	.	.
=39	=39	=39	=39	=39	=39	=39	=39	=39	=39	=39	=39	=39	=39	=39	=39	=39	=39	=39	=39	=39	=39	=39	=39	=39	=39	=39	=39	=39
4c\	.	.	8r	.	8r	.	(16g\LL	.	2E\	-lo-	.	2B-X\	-lo-	.	2g\	-lo-	.	2cc\	-lo-	.	2g\	.	2b-\	.	(2ee\	.	(2bb-X\	.
.	.	.	.	.	.	.	16cc\	.	.	.	.	.	.	.	.	.	.	.	.	.	.	.	.	.	.	.	.	.
.	.	.	8G|/L	.	8e|/L	.	16ee\	.	.	.	.	.	.	.	.	.	.	.	.	.	.	.	.	.	.	.	.	.
.	.	.	.	.	.	.	16cc\JJ)	.	.	.	.	.	.	.	.	.	.	.	.	.	.	.	.	.	.	.	.	.
4B-X\	.	.	(8B-X/	.	(8g/	.	(16g\LL	.	.	.	.	.	.	.	.	.	.	.	.	.	.	.	.	.	.	.	.	.
.	.	.	.	.	.	.	16cc\	.	.	.	.	.	.	.	.	.	.	.	.	.	.	.	.	.	.	.	.	.
.	.	.	8G/J)	.	8e/J)	.	16ee\	.	.	.	.	.	.	.	.	.	.	.	.	.	.	.	.	.	.	.	.	.
.	.	.	.	.	.	.	16cc\JJ)	.	.	.	.	.	.	.	.	.	.	.	.	.	.	.	.	.	.	.	.	.
!	!	!	!	!	!	!	!	!	!	!	!	!LO:PB:g=original	!	!	!	!	!	!	!	!	!	!	!	!	!	!	!	!
4A\	.	.	8r	.	8r	.	(16a\LL	.	2F\	-rum	.	2A\	-rum	.	2f\	-rum	.	2cc\	-rum	.	2f\	.	2a\	.	2ff\)	.	2aa\)	.
.	.	.	.	.	.	.	16cc\	.	.	.	.	.	.	.	.	.	.	.	.	.	.	.	.	.	.	.	.	.
.	.	.	8A|/L	.	8f|/L	.	16ff\	.	.	.	.	.	.	.	.	.	.	.	.	.	.	.	.	.	.	.	.	.
.	.	.	.	.	.	.	16cc\JJ)	.	.	.	.	.	.	.	.	.	.	.	.	.	.	.	.	.	.	.	.	.
4F\	.	.	(8c/	.	(8a/	.	(16a\LL	.	.	.	.	.	.	.	.	.	.	.	.	.	.	.	.	.	.	.	.	.
.	.	.	.	.	.	.	16cc\	.	.	.	.	.	.	.	.	.	.	.	.	.	.	.	.	.	.	.	.	.
.	.	.	8A/J)	.	8f/J)	.	16ff\	.	.	.	.	.	.	.	.	.	.	.	.	.	.	.	.	.	.	.	.	.
.	.	.	.	.	.	.	16cc\JJ)	.	.	.	.	.	.	.	.	.	.	.	.	.	.	.	.	.	.	.	.	.
!	!	!	!	!	!	!	!LO:LB:g=original	!	!	!	!	!	!	!	!	!	!	!	!	!	!	!	!	!	!	!	!	!
=40	=40	=40	=40	=40	=40	=40	=40	=40	=40	=40	=40	=40	=40	=40	=40	=40	=40	=40	=40	=40	=40	=40	=40	=40	=40	=40	=40	=40
!	!	!LO:DY:color=red	!	!LO:DY:color=red	!	!LO:DY:color=red	!	!LO:DY:color=red	!	!	!LO:DY:a:color=red	!	!	!LO:DY:a:color=red	!	!	!LO:DY:a:color=red	!	!	!LO:DY:a:color=red	!	!LO:DY:color=red	!	!LO:DY:color=red	!	!LO:DY:color=red:t=pia	!	!LO:DY:t=pia:color=red
4E\	.	p	8r	p	8r	p	(16e\LL	p	2G\	o-	p	2e\	o-	p	2b-\	o-	p	2cc\	o-	p	2c/	p	2c/	p	2g/	p	(2ee\	p
.	.	.	.	.	.	.	16cc\	.	.	.	.	.	.	.	.	.	.	.	.	.	.	.	.	.	.	.	.	.
.	.	.	8e|\L	.	8g|/L	.	16bb-\	.	.	.	.	.	.	.	.	.	.	.	.	.	.	.	.	.	.	.	.	.
.	.	.	.	.	.	.	16cc\JJ)	.	.	.	.	.	.	.	.	.	.	.	.	.	.	.	.	.	.	.	.	.
4C\	.	.	(8g\	.	(8b-/	.	(16e\LL	.	.	.	.	.	.	.	.	.	.	.	.	.	.	.	.	.	.	.	.	.
.	.	.	.	.	.	.	16cc\	.	.	.	.	.	.	.	.	.	.	.	.	.	.	.	.	.	.	.	.	.
.	.	.	8e\J)	.	8g/J)	.	16bb-\	.	.	.	.	.	.	.	.	.	.	.	.	.	.	.	.	.	.	.	.	.
.	.	.	.	.	.	.	16cc\JJ)	.	.	.	.	.	.	.	.	.	.	.	.	.	.	.	.	.	.	.	.	.
4F\	.	.	8r	.	8r	.	(16f\LL	.	4F\	-ra	.	4f\	-ra	.	4a\	-ra	.	4cc\	-ra	.	2c/	.	2c/	.	2a/	.	2ff\)	.
.	.	.	.	.	.	.	16cc\	.	.	.	.	.	.	.	.	.	.	.	.	.	.	.	.	.	.	.	.	.
.	.	.	8f|\L	.	8a|/L	.	16aa\)	.	.	.	.	.	.	.	.	.	.	.	.	.	.	.	.	.	.	.	.	.
.	.	.	.	.	.	.	16cc\JJ	.	.	.	.	.	.	.	.	.	.	.	.	.	.	.	.	.	.	.	.	.
4A\	.	.	(8a\	.	(8cc/	.	(16f\LL	.	4F\	pro	.	4f\	pro	.	4a\	pro	.	4cc\	pro	.	.	.	.	.	.	.	.	.
.	.	.	.	.	.	.	16cc\	.	.	.	.	.	.	.	.	.	.	.	.	.	.	.	.	.	.	.	.	.
.	.	.	8f\J)	.	8a/J)	.	16aa\	.	.	.	.	.	.	.	.	.	.	.	.	.	.	.	.	.	.	.	.	.
.	.	.	.	.	.	.	16cc\JJ)	.	.	.	.	.	.	.	.	.	.	.	.	.	.	.	.	.	.	.	.	.
!	!	!	!	!	!	!	!	!	!	!	!	!	!	!	!	!	!	!	!	!	!	!	!	!	!LO:LB:g=original	!	!	!
=41	=41	=41	=41	=41	=41	=41	=41	=41	=41	=41	=41	=41	=41	=41	=41	=41	=41	=41	=41	=41	=41	=41	=41	=41	=41	=41	=41	=41
4c\	.	.	8r	.	8r	.	(16g\LL	.	2E\	no-	.	2B-\	no-	.	2g\	no-	.	2cc\	no-	.	2c/	.	2c/	.	(2ee\	.	(2bb-\	.
.	.	.	.	.	.	.	16cc\	.	.	.	.	.	.	.	.	.	.	.	.	.	.	.	.	.	.	.	.	.
.	.	.	8G|/L	.	8e|/L	.	16ee\	.	.	.	.	.	.	.	.	.	.	.	.	.	.	.	.	.	.	.	.	.
.	.	.	.	.	.	.	16cc\JJ)	.	.	.	.	.	.	.	.	.	.	.	.	.	.	.	.	.	.	.	.	.
4C/	.	.	(8B-/	.	(8g/	.	(16g\LL	.	.	.	.	.	.	.	.	.	.	.	.	.	.	.	.	.	.	.	.	.
.	.	.	.	.	.	.	16cc\	.	.	.	.	.	.	.	.	.	.	.	.	.	.	.	.	.	.	.	.	.
.	.	.	8G/J)	.	8e/J)	.	16ee\	.	.	.	.	.	.	.	.	.	.	.	.	.	.	.	.	.	.	.	.	.
.	.	.	.	.	.	.	16cc\JJ)	.	.	.	.	.	.	.	.	.	.	.	.	.	.	.	.	.	.	.	.	.
4F\	.	.	4A/	.	4f/	.	(16a\LL	.	4F\	-bis	.	4A\	-bis	.	4a\	-bis	.	4cc\	-bis	.	2c/	.	2c/	.	4ff\)	.	4aa\)	.
.	.	.	.	.	.	.	16cc\	.	.	.	.	.	.	.	.	.	.	.	.	.	.	.	.	.	.	.	.	.
.	.	.	.	.	.	.	16ff\	.	.	.	.	.	.	.	.	.	.	.	.	.	.	.	.	.	.	.	.	.
.	.	.	.	.	.	.	16cc\JJ)	.	.	.	.	.	.	.	.	.	.	.	.	.	.	.	.	.	.	.	.	.
4r	.	.	4r	.	4r	.	(16a\LL	.	4r	.	.	4r	.	.	4r	.	.	4r	.	.	.	.	.	.	4r	.	4r	.
.	.	.	.	.	.	.	16cc\J	.	.	.	.	.	.	.	.	.	.	.	.	.	.	.	.	.	.	.	.	.
.	.	.	.	.	.	.	8ff\J)	.	.	.	.	.	.	.	.	.	.	.	.	.	.	.	.	.	.	.	.	.
!LO:LB:g=original	!	!	!LO:LB:g=original	!	!	!	!	!	!	!	!	!	!	!	!	!	!	!	!	!	!	!	!	!	!	!	!	!
=42	=42	=42	=42	=42	=42	=42	=42	=42	=42	=42	=42	=42	=42	=42	=42	=42	=42	=42	=42	=42	=42	=42	=42	=42	=42	=42	=42	=42
*	*	*	*	*	*	*	*^	*	*	*	*	*	*	*	*	*	*	*	*	*	*	*	*	*	*	*	*	*
*	*	*	*	*	*	*	*	*cue	*	*	*	*	*	*	*	*	*	*	*	*	*	*	*	*	*	*	*	*	*
!LO:TX:a:t=i	!	!	!LO:TX:a:t=1	!	!LO:TX:a:t=i	!	!LO:TX:a:t=i	!	!	!	!	!LO:DY:a:color=red	!	!	!LO:DY:a:color=red	!	!	!LO:DY:a:color=red	!	!	!LO:DY:a:color=red	!	!	!	!	!LO:TX:a:t=1	!	!LO:TX:a:t=1	!
1r	.	.	1r	.	1r	.	1r	2f\	.	2F\	Re-	f	2F/	Re-	f	2f\	Re-	f	2f/	Re-	f	1r	.	1r	.	1r	.	1r	.
.	.	.	.	.	.	.	.	4f\	.	4F\	-gi-	.	4F/	-gi-	.	4f\	-gi-	.	4f/	-gi-	.	.	.	.	.	.	.	.	.
.	.	.	.	.	.	.	.	4f\	.	4F\	-na	.	4F/	-na	.	4f\	-na	.	4f/	-na	.	.	.	.	.	.	.	.	.
*	*	*	*	*	*	*	*	*Xcue	*	*	*	*	*	*	*	*	*	*	*	*	*	*	*	*	*	*	*	*	*
*	*	*	*	*	*	*	*v	*v	*	*	*	*	*	*	*	*	*	*	*	*	*	*	*	*	*	*	*	*	*
=43	=43	=43	=43	=43	=43	=43	=43	=43	=43	=43	=43	=43	=43	=43	=43	=43	=43	=43	=43	=43	=43	=43	=43	=43	=43	=43	=43	=43
!	!	!LO:DY:color=red	!	!LO:DY:color=red	!	!LO:DY:color=red	!LO:TX:t=P:problem:mixed beam	!LO:DY:color=red:rj	!	!	!	!	!	!	!	!	!	!	!	!	!	!LO:DY:a:color=red	!	!LO:DY:color=red	!	!LO:DY:color=red	!	!LO:DY:t=f&colon;:color=red
4FF/	.	f	8r	f	8r	f	(16A/LL	f	(2E-X\	Mar-	.	2c\	Mart-	.	1f	Mar-	.	2a\	Ma-	.	2A/	f	2f\	f	2cc\	f	2ee-X\	f
.	.	.	.	.	.	.	16f/	.	.	.	.	.	.	.	.	.	.	.	.	.	.	.	.	.	.	.	.	.
.	.	.	8c|\L	.	8a|\L	.	16ee-X\	.	.	.	.	.	.	.	.	.	.	.	.	.	.	.	.	.	.	.	.	.
.	.	.	.	.	.	.	16f/JJ)	.	.	.	.	.	.	.	.	.	.	.	.	.	.	.	.	.	.	.	.	.
!	!	!	!	!	!	!	!LO:TX:t=P:problem:mixed beam	!	!	!	!	!	!	!	!	!	!	!	!	!	!	!	!	!	!	!	!	!
4F\	.	.	(8e-X\	.	(8cc\	.	(16A/LL	.	.	.	.	.	.	.	.	.	.	.	.	.	.	.	.	.	.	.	.	.
.	.	.	.	.	.	.	16f/	.	.	.	.	.	.	.	.	.	.	.	.	.	.	.	.	.	.	.	.	.
.	.	.	8c\J)	.	8a\J)	.	16ee-\	.	.	.	.	.	.	.	.	.	.	.	.	.	.	.	.	.	.	.	.	.
.	.	.	.	.	.	.	16f/JJ)	.	.	.	.	.	.	.	.	.	.	.	.	.	.	.	.	.	.	.	.	.
!	!	!	!	!	!	!	!LO:TX:t=P:problem:mixed beam	!	!	!	!	!	!	!	!	!	!	!	!	!	!	!	!	!	!	!	!	!
4D\	.	.	8r	.	8r	.	(16B-/LL	.	2D\)	.	.	2d\	.	.	.	.	.	2b-\	.	.	2F/	.	2f\	.	2b-X\	.	2dd\	.
.	.	.	.	.	.	.	16f/	.	.	.	.	.	.	.	.	.	.	.	.	.	.	.	.	.	.	.	.	.
!	!	!	!	!	!LO:LB:g=original	!	!	!	!	!	!	!	!	!	!	!	!	!	!	!	!	!	!	!	!	!	!	!
.	.	.	8d|\L	.	8b-|\L	.	16dd\	.	.	.	.	.	.	.	.	.	.	.	.	.	.	.	.	.	.	.	.	.
.	.	.	.	.	.	.	16f/JJ)	.	.	.	.	.	.	.	.	.	.	.	.	.	.	.	.	.	.	.	.	.
!	!	!	!	!	!	!	!LO:TX:t=P:problem:mixed beam	!	!	!	!	!	!	!	!	!	!	!	!	!	!	!	!	!	!	!	!	!
4BB-/	.	.	(8f\	.	(8dd\	.	(16B-/LL	.	.	.	.	.	.	.	.	.	.	.	.	.	.	.	.	.	.	.	.	.
.	.	.	.	.	.	.	16f/	.	.	.	.	.	.	.	.	.	.	.	.	.	.	.	.	.	.	.	.	.
.	.	.	8d\J)	.	8b-\J)	.	16dd\	.	.	.	.	.	.	.	.	.	.	.	.	.	.	.	.	.	.	.	.	.
.	.	.	.	.	.	.	16f/JJ)	.	.	.	.	.	.	.	.	.	.	.	.	.	.	.	.	.	.	.	.	.
!	!	!	!	!	!	!	!	!	!LO:LB:g=original	!	!	!	!	!	!	!	!	!	!	!	!	!	!	!	!	!	!	!
=44	=44	=44	=44	=44	=44	=44	=44	=44	=44	=44	=44	=44	=44	=44	=44	=44	=44	=44	=44	=44	=44	=44	=44	=44	=44	=44	=44	=44
4AA/	.	.	8r	.	8r	.	(16c/LL	.	4AA/	.	.	4e-X\	-tÿ-	.	4f\	-tÿ-	.	4cc\	-rtÿ-	.	2c/	.	2f\	.	2e-X/	.	4cc\	.
.	.	.	.	.	.	.	16f/	.	.	.	.	.	.	.	.	.	.	.	.	.	.	.	.	.	.	.	.	.
.	.	.	8A|/L	.	8cc|\L	.	16a/	.	.	.	.	.	.	.	.	.	.	.	.	.	.	.	.	.	.	.	.	.
.	.	.	.	.	.	.	16f/JJ)	.	.	.	.	.	.	.	.	.	.	.	.	.	.	.	.	.	.	.	.	.
4FF/	.	.	(8c/	.	(8ee-X\	.	(16c/LL	.	4AA/	-ti-	.	4e-\	.	.	4f\	.	.	4cc\	.	.	.	.	.	.	.	.	4a\	.
.	.	.	.	.	.	.	16f/	.	.	.	.	.	.	.	.	.	.	.	.	.	.	.	.	.	.	.	.	.
.	.	.	8A/J)	.	8cc\J)	.	16a/	.	.	.	.	.	.	.	.	.	.	.	.	.	.	.	.	.	.	.	.	.
.	.	.	.	.	.	.	16f/JJ)	.	.	.	.	.	.	.	.	.	.	.	.	.	.	.	.	.	.	.	.	.
4BB-/	.	.	8r	.	8r	.	(16d/LL	.	2BB-/	-rum	.	2d\	-rum	.	2f\	-rum	.	2b-\	-rum	.	2c/	.	2f\	.	4d/	.	4b-\	.
.	.	.	.	.	.	.	16f/	.	.	.	.	.	.	.	.	.	.	.	.	.	.	.	.	.	.	.	.	.
.	.	.	8B-|/L	.	8dd|\L	.	16b-/	.	.	.	.	.	.	.	.	.	.	.	.	.	.	.	.	.	.	.	.	.
.	.	.	.	.	.	.	16f/JJ)	.	.	.	.	.	.	.	.	.	.	.	.	.	.	.	.	.	.	.	.	.
4D/	.	.	(8d/	.	(8ff\	.	(16d/LL	.	.	.	.	.	.	.	.	.	.	.	.	.	.	.	.	.	4b-\	.	4dd\	.
.	.	.	.	.	.	.	16f/	.	.	.	.	.	.	.	.	.	.	.	.	.	.	.	.	.	.	.	.	.
.	.	.	8B-/J)	.	8dd\J)	.	16b-/	.	.	.	.	.	.	.	.	.	.	.	.	.	.	.	.	.	.	.	.	.
.	.	.	.	.	.	.	16f/JJ)	.	.	.	.	.	.	.	.	.	.	.	.	.	.	.	.	.	.	.	.	.
!	!	!	!	!	!	!	!LO:LB:g=original	!	!	!	!	!	!	!	!	!	!	!	!	!	!	!	!	!	!	!	!	!
=45	=45	=45	=45	=45	=45	=45	=45	=45	=45	=45	=45	=45	=45	=45	=45	=45	=45	=45	=45	=45	=45	=45	=45	=45	=45	=45	=45	=45
!	!	!LO:DY:color=red	!	!LO:DY:color=red	!	!LO:DY:color=red	!LO:TX:t=P:problem:mixed beam	!LO:DY:color=red	!	!	!LO:DY:a:color=red	!	!	!LO:DY:a:color=red	!	!	!LO:DY:a:color=red	!	!	!LO:DY:a:color=red	!	!LO:DY:color=red	!	!LO:DY:color=red	!	!LO:DY:color=red:t=p&colon;	!LO:SIC:v:s=2ee-\	!LO:DY:t=p&colon;:color=red
4FF/	.	p	8r	p	8r	p	(16A/LL	p	2E-X\	o-	p	2c\	o-	p	2f\	o-	p	2a\	o-	p	2f\	p	2f\	p	2cc\	p	2ee\	p
.	.	.	.	.	.	.	16f/	.	.	.	.	.	.	.	.	.	.	.	.	.	.	.	.	.	.	.	.	.
.	.	.	8c|\L	.	8a|\L	.	16ee-X\	.	.	.	.	.	.	.	.	.	.	.	.	.	.	.	.	.	.	.	.	.
.	.	.	.	.	.	.	16f/JJ)	.	.	.	.	.	.	.	.	.	.	.	.	.	.	.	.	.	.	.	.	.
!	!	!	!	!	!	!	!LO:TX:t=P:problem:mixed beam	!	!	!	!	!	!	!	!	!	!	!	!	!	!	!	!	!	!	!	!	!
4F\	.	.	(8e-X\	.	(8cc\	.	(16A/LL	.	.	.	.	.	.	.	.	.	.	.	.	.	.	.	.	.	.	.	.	.
.	.	.	.	.	.	.	16f/	.	.	.	.	.	.	.	.	.	.	.	.	.	.	.	.	.	.	.	.	.
.	.	.	8c\J)	.	8a\J)	.	16ee-\	.	.	.	.	.	.	.	.	.	.	.	.	.	.	.	.	.	.	.	.	.
.	.	.	.	.	.	.	16f/JJ)	.	.	.	.	.	.	.	.	.	.	.	.	.	.	.	.	.	.	.	.	.
!	!	!	!	!	!	!	!LO:TX:t=P:problem:mixed beam	!	!	!	!	!	!	!	!	!	!	!	!	!	!	!	!	!	!	!	!	!
4D/	.	.	8r	.	8r	.	(16B-/LL	.	4D\	-ra	.	4d\	-ra	.	4f\	-ra	.	4b-\	-ra	.	2f\	.	2f\	.	2b-\	.	2dd\	.
.	.	.	.	.	.	.	16f/	.	.	.	.	.	.	.	.	.	.	.	.	.	.	.	.	.	.	.	.	.
.	.	.	8d|\L	.	8b-|\L	.	16dd\	.	.	.	.	.	.	.	.	.	.	.	.	.	.	.	.	.	.	.	.	.
.	.	.	.	.	.	.	16f/JJ)	.	.	.	.	.	.	.	.	.	.	.	.	.	.	.	.	.	.	.	.	.
!	!	!	!	!	!	!	!LO:TX:t=P:problem:mixed beam	!	!	!	!	!	!	!	!	!	!	!	!	!	!	!	!	!	!	!	!	!
4BB-/	.	.	(8f\	.	(8dd\	.	(16B-/LL	.	4D\	pro	.	4d\	pro	.	4f\	pro	.	4b-\	pro	.	.	.	.	.	.	.	.	.
.	.	.	.	.	.	.	16f/	.	.	.	.	.	.	.	.	.	.	.	.	.	.	.	.	.	.	.	.	.
.	.	.	8d\J)	.	8b-\J)	.	16dd\	.	.	.	.	.	.	.	.	.	.	.	.	.	.	.	.	.	.	.	.	.
.	.	.	.	.	.	.	16f/JJ)	.	.	.	.	.	.	.	.	.	.	.	.	.	.	.	.	.	.	.	.	.
=46	=46	=46	=46	=46	=46	=46	=46	=46	=46	=46	=46	=46	=46	=46	=46	=46	=46	=46	=46	=46	=46	=46	=46	=46	=46	=46	=46	=46
!	!	!	!	!	!	!	!	!	!	!	!	!	!	!	!	!	!	!	!	!	!	!	!	!	!LO:SIC:v:s=2e-/	!	!	!
4AA/	.	.	8r	.	8r	.	(16c/LL	.	2AA/	no-	.	2e-X\	no-	.	2f\	no-	.	2cc\	no-	.	2f\	.	2f\	.	2e/	.	4cc\	.
.	.	.	.	.	.	.	16f/	.	.	.	.	.	.	.	.	.	.	.	.	.	.	.	.	.	.	.	.	.
.	.	.	8A|/L	.	8cc\L	.	16a/	.	.	.	.	.	.	.	.	.	.	.	.	.	.	.	.	.	.	.	.	.
.	.	.	.	.	.	.	16f/JJ)	.	.	.	.	.	.	.	.	.	.	.	.	.	.	.	.	.	.	.	.	.
4FF/	.	.	(8c/	.	8ee-X\	.	(16c/LL	.	.	.	.	.	.	.	.	.	.	.	.	.	.	.	.	.	.	.	4a\	.
.	.	.	.	.	.	.	16f/	.	.	.	.	.	.	.	.	.	.	.	.	.	.	.	.	.	.	.	.	.
.	.	.	8A/J)	.	8cc\J	.	16a/	.	.	.	.	.	.	.	.	.	.	.	.	.	.	.	.	.	.	.	.	.
.	.	.	.	.	.	.	16f/JJ)	.	.	.	.	.	.	.	.	.	.	.	.	.	.	.	.	.	.	.	.	.
!	!	!	!	!	!	!	!	!	!	!	!	!	!	!	!	!	!	!LO:LB:g=original	!	!	!	!	!	!	!	!	!	!
4BB-/	.	.	4B-/	.	4dd\	.	(16d/LL	.	4BB-/	-bis	.	4d\	-bis	.	4f\	-bis	.	4b-\	-bis	.	2f\	.	2f\	.	4d/	.	4b-\	.
.	.	.	.	.	.	.	16f/	.	.	.	.	.	.	.	.	.	.	.	.	.	.	.	.	.	.	.	.	.
.	.	.	.	.	.	.	16b-/	.	.	.	.	.	.	.	.	.	.	.	.	.	.	.	.	.	.	.	.	.
.	.	.	.	.	.	.	16f/JJ)	.	.	.	.	.	.	.	.	.	.	.	.	.	.	.	.	.	.	.	.	.
4r	.	.	4r	.	4r	.	(16d/LL	.	4r	.	.	4r	.	.	4r	.	.	4r	.	.	.	.	.	.	4r	.	4r	.
.	.	.	.	.	.	.	16f/J	.	.	.	.	.	.	.	.	.	.	.	.	.	.	.	.	.	.	.	.	.
.	.	.	.	.	.	.	8b-/J)	.	.	.	.	.	.	.	.	.	.	.	.	.	.	.	.	.	.	.	.	.
!	!	!	!	!	!	!	!	!	!	!	!	!LO:LB:g=original	!	!	!	!	!	!	!	!	!	!	!	!	!	!	!LO:LB:g=original	!
=47	=47	=47	=47	=47	=47	=47	=47	=47	=47	=47	=47	=47	=47	=47	=47	=47	=47	=47	=47	=47	=47	=47	=47	=47	=47	=47	=47	=47
*	*	*	*	*	*	*	*^	*	*	*	*	*	*	*	*	*	*	*	*	*	*	*	*	*	*	*	*	*
*	*	*	*	*	*	*	*	*cue	*	*	*	*	*	*	*	*	*	*	*	*	*	*	*	*	*	*	*	*	*
!	!	!	!LO:TX:a:t=1	!	!LO:TX:a:t=1	!	!LO:TX:a:t=i.	!	!	!	!	!LO:DY:a:color=red	!	!	!LO:DY:a:color=red	!	!	!LO:DY:a:color=red	!	!	!LO:DY:a:color=red	!LO:TX:a:t=1	!	!LO:TX:a:t=i	!	!LO:TX:a:t=1	!	!LO:TX:a:t=1	!
1r	.	.	1r	.	1r	.	1r	2g\	.	2G\	Re-	f	2G/	Re-	f	2g\	Re-	f	2g\	Re-	f	1r	.	1r	.	1r	.	1r	.
.	.	.	.	.	.	.	.	4g\	.	4G\	-gi-	.	4G/	-gi-	.	4g\	-gi-	.	4g\	-gi-	.	.	.	.	.	.	.	.	.
.	.	.	.	.	.	.	.	4g\	.	4G\	-na	.	4G/	-na	.	4g\	-na	.	4g\	-na	.	.	.	.	.	.	.	.	.
*	*	*	*	*	*	*	*	*Xcue	*	*	*	*	*	*	*	*	*	*	*	*	*	*	*	*	*	*	*	*	*
*	*	*	*	*	*	*	*v	*v	*	*	*	*	*	*	*	*	*	*	*	*	*	*	*	*	*	*	*	*	*
!	!	!	!	!	!	!	!	!	!	!	!	!	!	!	!LO:LB:g=original	!	!	!	!	!	!	!	!	!	!	!	!	!
=48	=48	=48	=48	=48	=48	=48	=48	=48	=48	=48	=48	=48	=48	=48	=48	=48	=48	=48	=48	=48	=48	=48	=48	=48	=48	=48	=48	=48
!	!	!LO:DY:color=red	!	!LO:DY:color=red	!	!LO:DY:color=red	!	!LO:DY:color=red	!	!	!	!	!	!	!	!	!	!	!	!	!	!LO:DY:a:color=red	!	!LO:DY:color=red	!	!LO:DY:color=red:t=f&colon;	!	!LO:DY:t=f&colon;:color=red
4D/	.	f	8r	f	8r	f	(16g\LL	f	2BBn/	Con-	.	2G/	Con-	.	2f\	Con-	.	2dd\	Con-	.	2g\	f	2g\	f	2bn\	f	2dd\	f
.	.	.	.	.	.	.	16dd\	.	.	.	.	.	.	.	.	.	.	.	.	.	.	.	.	.	.	.	.	.
.	.	.	8d|\L	.	8bn|\L	.	16ff\	.	.	.	.	.	.	.	.	.	.	.	.	.	.	.	.	.	.	.	.	.
.	.	.	.	.	.	.	16dd\JJ)	.	.	.	.	.	.	.	.	.	.	.	.	.	.	.	.	.	.	.	.	.
4BBn/	.	.	(8f\	.	(8dd\	.	(16g\LL	.	.	.	.	.	.	.	.	.	.	.	.	.	.	.	.	.	.	.	.	.
.	.	.	.	.	.	.	16dd\	.	.	.	.	.	.	.	.	.	.	.	.	.	.	.	.	.	.	.	.	.
.	.	.	8d\J)	.	8b\J)	.	16ff\	.	.	.	.	.	.	.	.	.	.	.	.	.	.	.	.	.	.	.	.	.
.	.	.	.	.	.	.	16dd\JJ)	.	.	.	.	.	.	.	.	.	.	.	.	.	.	.	.	.	.	.	.	.
4C/	.	.	8r	.	8r	.	(16g\LL	.	2C/	-feſ-	.	2G/	-feſ-	.	2e\	-feſ-	.	2cc\	-feſ-	.	2c/	.	2g\	.	2cc\	.	2een\	.
.	.	.	.	.	.	.	16cc\	.	.	.	.	.	.	.	.	.	.	.	.	.	.	.	.	.	.	.	.	.
.	.	.	8en|\L	.	8cc|\L	.	16een\	.	.	.	.	.	.	.	.	.	.	.	.	.	.	.	.	.	.	.	.	.
.	.	.	.	.	.	.	16cc\JJ)	.	.	.	.	.	.	.	.	.	.	.	.	.	.	.	.	.	.	.	.	.
4E\	.	.	(8g\	.	(8een\	.	(16g\LL	.	.	.	.	.	.	.	.	.	.	.	.	.	.	.	.	.	.	.	.	.
.	.	.	.	.	.	.	16cc\	.	.	.	.	.	.	.	.	.	.	.	.	.	.	.	.	.	.	.	.	.
.	.	.	8e\J)	.	8cc\J)	.	16ee\	.	.	.	.	.	.	.	.	.	.	.	.	.	.	.	.	.	.	.	.	.
.	.	.	.	.	.	.	16cc\JJ)	.	.	.	.	.	.	.	.	.	.	.	.	.	.	.	.	.	.	.	.	.
!	!	!	!	!	!	!	!	!	!	!	!	!	!	!	!	!	!	!	!	!	!LO:LB:g=original	!	!	!	!	!	!	!
=49	=49	=49	=49	=49	=49	=49	=49	=49	=49	=49	=49	=49	=49	=49	=49	=49	=49	=49	=49	=49	=49	=49	=49	=49	=49	=49	=49	=49
4D\	.	.	8r	.	8r	.	(16G/LL	.	2F\	-so-	.	2G/	-so-	.	2d\	-so-	.	2bn\	-so-	.	2g\	.	2g\	.	2dd\	.	2ff\	.
.	.	.	.	.	.	.	16d/	.	.	.	.	.	.	.	.	.	.	.	.	.	.	.	.	.	.	.	.	.
.	.	.	8Bn|/L	.	8dd|\L	.	16bn/	.	.	.	.	.	.	.	.	.	.	.	.	.	.	.	.	.	.	.	.	.
.	.	.	.	.	.	.	16d/JJ)	.	.	.	.	.	.	.	.	.	.	.	.	.	.	.	.	.	.	.	.	.
4G\	.	.	(8d/	.	(8ff\	.	(16G/LL	.	.	.	.	.	.	.	.	.	.	.	.	.	.	.	.	.	.	.	.	.
.	.	.	.	.	.	.	16d/	.	.	.	.	.	.	.	.	.	.	.	.	.	.	.	.	.	.	.	.	.
.	.	.	8B/J)	.	8dd\J)	.	16b/	.	.	.	.	.	.	.	.	.	.	.	.	.	.	.	.	.	.	.	.	.
.	.	.	.	.	.	.	16d/JJ)	.	.	.	.	.	.	.	.	.	.	.	.	.	.	.	.	.	.	.	.	.
4E\	.	.	8r	.	8r	.	(16G/LL	.	2En\	-rum	.	2G/	-rum	.	2e\	-rum	.	2cc\	-rum	.	2c/	.	2g\	.	2cc\	.	2ee\	.
.	.	.	.	.	.	.	16e/	.	.	.	.	.	.	.	.	.	.	.	.	.	.	.	.	.	.	.	.	.
.	.	.	8c|\L	.	8ee|\L	.	16cc/	.	.	.	.	.	.	.	.	.	.	.	.	.	.	.	.	.	.	.	.	.
.	.	.	.	.	.	.	16e/JJ)	.	.	.	.	.	.	.	.	.	.	.	.	.	.	.	.	.	.	.	.	.
!	!	!	!	!	!	!	!LO:LB:g=original	!	!	!	!	!	!	!	!	!	!	!	!	!	!	!	!	!	!	!	!	!
4C\	.	.	(8e\	.	(8gg\	.	(16G/LL	.	.	.	.	.	.	.	.	.	.	.	.	.	.	.	.	.	.	.	.	.
.	.	.	.	.	.	.	16e/	.	.	.	.	.	.	.	.	.	.	.	.	.	.	.	.	.	.	.	.	.
.	.	.	8c\J)	.	8ee\J)	.	16cc/	.	.	.	.	.	.	.	.	.	.	.	.	.	.	.	.	.	.	.	.	.
.	.	.	.	.	.	.	16e/JJ)	.	.	.	.	.	.	.	.	.	.	.	.	.	.	.	.	.	.	.	.	.
!	!	!	!LO:LB:g=original	!	!	!	!	!	!	!	!	!	!	!	!	!	!	!	!	!	!	!	!	!	!	!	!	!
=50	=50	=50	=50	=50	=50	=50	=50	=50	=50	=50	=50	=50	=50	=50	=50	=50	=50	=50	=50	=50	=50	=50	=50	=50	=50	=50	=50	=50
!	!	!LO:DY:color=red	!	!LO:DY:color=red	!	!LO:DY:color=red	!	!LO:DY:color=red	!	!	!LO:DY:a:color=red	!	!	!LO:DY:a:color=red	!	!	!LO:DY:a:color=red	!	!	!LO:DY:a:color=red	!	!LO:DY:a:color=red	!	!LO:DY:color=red	!	!LO:DY:color=red:t=p&colon;	!	!LO:DY:t=pia:color=red
4D/	.	p	8r	p	8r	p	(16g\LL	p	2BBn/	o-	p	2G/	o-	p	2f\	o-	p	2dd\	o-	p	2g\	p	2g\	p	2bn\	p	2dd\	p
.	.	.	.	.	.	.	16dd\	.	.	.	.	.	.	.	.	.	.	.	.	.	.	.	.	.	.	.	.	.
.	.	.	8d|\L	.	8bn|\L	.	16ff\	.	.	.	.	.	.	.	.	.	.	.	.	.	.	.	.	.	.	.	.	.
.	.	.	.	.	.	.	16dd\JJ)	.	.	.	.	.	.	.	.	.	.	.	.	.	.	.	.	.	.	.	.	.
4BBn/	.	.	(8f\	.	(8dd\	.	(16g\LL	.	.	.	.	.	.	.	.	.	.	.	.	.	.	.	.	.	.	.	.	.
.	.	.	.	.	.	.	16dd\	.	.	.	.	.	.	.	.	.	.	.	.	.	.	.	.	.	.	.	.	.
.	.	.	8d\J)	.	8b\J)	.	16ff\	.	.	.	.	.	.	.	.	.	.	.	.	.	.	.	.	.	.	.	.	.
.	.	.	.	.	.	.	16dd\JJ)	.	.	.	.	.	.	.	.	.	.	.	.	.	.	.	.	.	.	.	.	.
4C/	.	.	8r	.	8r	.	(16g\LL	.	4C/	-ra	.	4G/	-ra	.	4e\	-ra	.	4cc\	-ra	.	2g\	.	2g\	.	2cc\	.	2ee\	.
.	.	.	.	.	.	.	16cc\	.	.	.	.	.	.	.	.	.	.	.	.	.	.	.	.	.	.	.	.	.
.	.	.	8e|\L	.	8cc|\L	.	16ee\	.	.	.	.	.	.	.	.	.	.	.	.	.	.	.	.	.	.	.	.	.
.	.	.	.	.	.	.	16cc\JJ)	.	.	.	.	.	.	.	.	.	.	.	.	.	.	.	.	.	.	.	.	.
4E\	.	.	(8g\	.	(8ee\	.	(16g\LL	.	4C/	pro	.	4G/	pro	.	4e\	pro	.	4cc\	pro	.	.	.	.	.	.	.	.	.
.	.	.	.	.	.	.	16cc\	.	.	.	.	.	.	.	.	.	.	.	.	.	.	.	.	.	.	.	.	.
.	.	.	8e\J)	.	8cc\J)	.	16ee\	.	.	.	.	.	.	.	.	.	.	.	.	.	.	.	.	.	.	.	.	.
.	.	.	.	.	.	.	16cc\JJ)	.	.	.	.	.	.	.	.	.	.	.	.	.	.	.	.	.	.	.	.	.
=51	=51	=51	=51	=51	=51	=51	=51	=51	=51	=51	=51	=51	=51	=51	=51	=51	=51	=51	=51	=51	=51	=51	=51	=51	=51	=51	=51	=51
4D\	.	.	8r	.	8r	.	(16G/LL	.	2F\	no-	.	2G/	no-	.	2d\	no-	.	2bn\	no-	.	2g\	.	2g\	.	2dd\	.	2ff\	.
.	.	.	.	.	.	.	16d/	.	.	.	.	.	.	.	.	.	.	.	.	.	.	.	.	.	.	.	.	.
.	.	.	8Bn|/L	.	8dd|\L	.	16bn/	.	.	.	.	.	.	.	.	.	.	.	.	.	.	.	.	.	.	.	.	.
.	.	.	.	.	.	.	16d/JJ)	.	.	.	.	.	.	.	.	.	.	.	.	.	.	.	.	.	.	.	.	.
4G\	.	.	(8d/	.	(8ff\	.	(16G/LL	.	.	.	.	.	.	.	.	.	.	.	.	.	.	.	.	.	.	.	.	.
.	.	.	.	.	.	.	16d/	.	.	.	.	.	.	.	.	.	.	.	.	.	.	.	.	.	.	.	.	.
.	.	.	8B/J)	.	8dd\J)	.	16bn/	.	.	.	.	.	.	.	.	.	.	.	.	.	.	.	.	.	.	.	.	.
.	.	.	.	.	.	.	16d/JJ)	.	.	.	.	.	.	.	.	.	.	.	.	.	.	.	.	.	.	.	.	.
4E\	.	.	8r	.	8r	.	(16G/LL	.	2E\	-bis	.	2G/	-bis	.	2e\	-bis	.	2cc\	-bis	.	2g\	.	2g\	.	2cc\	.	2ee\	.
.	.	.	.	.	.	.	16e/	.	.	.	.	.	.	.	.	.	.	.	.	.	.	.	.	.	.	.	.	.
.	.	.	8c|\L	.	8ee|\L	.	16cc/	.	.	.	.	.	.	.	.	.	.	.	.	.	.	.	.	.	.	.	.	.
.	.	.	.	.	.	.	16e/JJ)	.	.	.	.	.	.	.	.	.	.	.	.	.	.	.	.	.	.	.	.	.
4C\	.	.	(8e\	.	(8gg\	.	(16G/LL	.	.	.	.	.	.	.	.	.	.	.	.	.	.	.	.	.	.	.	.	.
.	.	.	.	.	.	.	16e/	.	.	.	.	.	.	.	.	.	.	.	.	.	.	.	.	.	.	.	.	.
.	.	.	8c\J)	.	8ee\J)	.	16cc/	.	.	.	.	.	.	.	.	.	.	.	.	.	.	.	.	.	.	.	.	.
.	.	.	.	.	.	.	16e/JJ)	.	.	.	.	.	.	.	.	.	.	.	.	.	.	.	.	.	.	.	.	.
!	!	!	!	!	!LO:PB:g=original	!	!	!	!	!	!	!	!	!	!	!	!	!	!	!	!	!	!LO:LB:g=original	!	!	!	!	!
=52	=52	=52	=52	=52	=52	=52	=52	=52	=52	=52	=52	=52	=52	=52	=52	=52	=52	=52	=52	=52	=52	=52	=52	=52	=52	=52	=52	=52
!	!	!LO:DY:color=red	!	!LO:DY:color=red	!	!	!	!LO:DY:color=red	!	!	!LO:DY:a:color=red	!	!	!LO:DY:a:color=red	!	!	!LO:DY:b:color=red	!	!	!LO:DY:a:color=red	!	!LO:DY:color=red	!	!LO:DY:color=red	!	!LO:DY:color=red	!	!LO:DY:color=red
4E\	.	f	8r	f	8ryy	.	(16g\LL	f	(2G\	o-	f	(2e\	o-	f	2b-X\	o-	f	1cc	o-	f	2c/	f	2g\	f	2gg\	f	2bb-X\	f
.	.	.	.	.	.	.	16cc\	.	.	.	.	.	.	.	.	.	.	.	.	.	.	.	.	.	.	.	.	.
!	!	!	!	!	!	!LO:DY:color=red	!	!	!	!	!	!	!	!	!	!	!	!	!	!	!	!	!	!	!	!	!	!
.	.	.	8e|\L	.	8g|/L	f	16ee\	.	.	.	.	.	.	.	.	.	.	.	.	.	.	.	.	.	.	.	.	.
.	.	.	.	.	.	.	16cc\JJ)	.	.	.	.	.	.	.	.	.	.	.	.	.	.	.	.	.	.	.	.	.
4C\	.	.	(8g\	.	(8b-/	.	(16g\LL	.	.	.	.	.	.	.	.	.	.	.	.	.	.	.	.	.	.	.	.	.
.	.	.	.	.	.	.	16cc\	.	.	.	.	.	.	.	.	.	.	.	.	.	.	.	.	.	.	.	.	.
.	.	.	8e\J)	.	8g/J)	.	16ee\	.	.	.	.	.	.	.	.	.	.	.	.	.	.	.	.	.	.	.	.	.
.	.	.	.	.	.	.	16cc\JJ)	.	.	.	.	.	.	.	.	.	.	.	.	.	.	.	.	.	.	.	.	.
4F\	.	.	8r	.	8r	.	(16a\LL	.	2F\)	.	.	2f\)	.	.	2a\	.	.	.	.	.	2f\	.	2a\	.	2ff\	.	2aa\	.
.	.	.	.	.	.	.	16cc\	.	.	.	.	.	.	.	.	.	.	.	.	.	.	.	.	.	.	.	.	.
.	.	.	8f|\L	.	8a|/L	.	16ff\	.	.	.	.	.	.	.	.	.	.	.	.	.	.	.	.	.	.	.	.	.
.	.	.	.	.	.	.	16cc\JJ)	.	.	.	.	.	.	.	.	.	.	.	.	.	.	.	.	.	.	.	.	.
4A\	.	.	(8a\	.	(8cc/	.	(16a\LL	.	.	.	.	.	.	.	.	.	.	.	.	.	.	.	.	.	.	.	.	.
.	.	.	.	.	.	.	16cc\	.	.	.	.	.	.	.	.	.	.	.	.	.	.	.	.	.	.	.	.	.
.	.	.	8f\J)	.	8a/J)	.	16ff\	.	.	.	.	.	.	.	.	.	.	.	.	.	.	.	.	.	.	.	.	.
.	.	.	.	.	.	.	16cc\JJ)	.	.	.	.	.	.	.	.	.	.	.	.	.	.	.	.	.	.	.	.	.
=53	=53	=53	=53	=53	=53	=53	=53	=53	=53	=53	=53	=53	=53	=53	=53	=53	=53	=53	=53	=53	=53	=53	=53	=53	=53	=53	=53	=53
4c\	.	.	8r	.	8r	.	(16e\LL	.	(2E\	-ra	.	(2B-\	-ra	.	2g\	.	.	1cc	-ra	.	2g\	.	2b-\	.	2g/	.	2ee\	.
.	.	.	.	.	.	.	16cc\	.	.	.	.	.	.	.	.	.	.	.	.	.	.	.	.	.	.	.	.	.
.	.	.	8G|/L	.	8e|/L	.	16bb-X\	.	.	.	.	.	.	.	.	.	.	.	.	.	.	.	.	.	.	.	.	.
.	.	.	.	.	.	.	16cc\JJ)	.	.	.	.	.	.	.	.	.	.	.	.	.	.	.	.	.	.	.	.	.
4B-X\	.	.	(8B-X/	.	(8g/	.	(16e\LL	.	.	.	.	.	.	.	.	.	.	.	.	.	.	.	.	.	.	.	.	.
.	.	.	.	.	.	.	16cc\	.	.	.	.	.	.	.	.	.	.	.	.	.	.	.	.	.	.	.	.	.
.	.	.	8G/J)	.	8e/J)	.	16bb-\	.	.	.	.	.	.	.	.	.	.	.	.	.	.	.	.	.	.	.	.	.
.	.	.	.	.	.	.	16cc\JJ)	.	.	.	.	.	.	.	.	.	.	.	.	.	.	.	.	.	.	.	.	.
4A\	.	.	8r	.	8r	.	(16f\LL	.	2F\)	.	.	2A\)	.	.	2a\	-ra	.	.	.	.	2f\	.	2a\	.	2a/	.	2ff\	.
.	.	.	.	.	.	.	16cc\	.	.	.	.	.	.	.	.	.	.	.	.	.	.	.	.	.	.	.	.	.
.	.	.	8A|/L	.	8f|/L	.	16aa\	.	.	.	.	.	.	.	.	.	.	.	.	.	.	.	.	.	.	.	.	.
.	.	.	.	.	.	.	16cc\JJ)	.	.	.	.	.	.	.	.	.	.	.	.	.	.	.	.	.	.	.	.	.
4F\	.	.	(8c/	.	(8a/	.	(16f\LL	.	.	.	.	.	.	.	.	.	.	.	.	.	.	.	.	.	.	.	.	.
.	.	.	.	.	.	.	16cc\	.	.	.	.	.	.	.	.	.	.	.	.	.	.	.	.	.	.	.	.	.
.	.	.	8A/J)	.	8f/J)	.	16aa\	.	.	.	.	.	.	.	.	.	.	.	.	.	.	.	.	.	.	.	.	.
.	.	.	.	.	.	.	16cc\JJ)	.	.	.	.	.	.	.	.	.	.	.	.	.	.	.	.	.	.	.	.	.
!LO:LB:g=original	!	!	!	!	!	!	!LO:LB:g=original	!	!LO:PB:g=original	!	!	!	!	!	!	!	!	!	!	!	!	!	!	!	!LO:LB:g=original	!	!	!
=54	=54	=54	=54	=54	=54	=54	=54	=54	=54	=54	=54	=54	=54	=54	=54	=54	=54	=54	=54	=54	=54	=54	=54	=54	=54	=54	=54	=54
!LO:TX:t=P:problem:zbędne powtórzenie w vla	!	!	!LO:TX:t=P:problem:zbędne powtórzenie taktu nr 53	!	!LO:TX:t=P:problem:zbędne powtórzenie w vla	!	!LO:TX:t=P:problem:zbędne powtórzenie w vla	!	!LO:TX:t=P:problem:zbędne powtórzenie w vla	!	!	!LO:TX:t=P:problem:zbędne powtórzenie w vla	!	!	!LO:TX:t=P:problem:zbędne powtórzenie w vla	!	!	!LO:TX:t=P:problem:zbędne powtórzenie w vla	!LO:TX:t=P:problem:zbędne powtórzenie w vla	!	!LO:TX:t=P:problem:zbędne powtórzenie w vla	!	!LO:TX:t=P:problem:zbędne powtórzenie w vla	!	!LO:TX:t=P:problem:zbędne powtórzenie w vla	!	!LO:TX:t=P:problem:zbędne powtórzenie w vla	!
1ryy	.	.	8r	.	1ryy	.	1ryy	.	1ryy	.	.	1ryy	.	.	1ryy	.	.	1ryy	.	.	1ryy	.	1ryy	.	1ryy	.	1ryy	.
.	.	.	8G|/L	.	.	.	.	.	.	.	.	.	.	.	.	.	.	.	.	.	.	.	.	.	.	.	.	.
.	.	.	(8B-X/	.	.	.	.	.	.	.	.	.	.	.	.	.	.	.	.	.	.	.	.	.	.	.	.	.
.	.	.	8G/J)	.	.	.	.	.	.	.	.	.	.	.	.	.	.	.	.	.	.	.	.	.	.	.	.	.
.	.	.	8r	.	.	.	.	.	.	.	.	.	.	.	.	.	.	.	.	.	.	.	.	.	.	.	.	.
.	.	.	8A|/L	.	.	.	.	.	.	.	.	.	.	.	.	.	.	.	.	.	.	.	.	.	.	.	.	.
.	.	.	(8c/	.	.	.	.	.	.	.	.	.	.	.	.	.	.	.	.	.	.	.	.	.	.	.	.	.
.	.	.	8A/J)	.	.	.	.	.	.	.	.	.	.	.	.	.	.	.	.	.	.	.	.	.	.	.	.	.
=55	=55	=55	=55	=55	=55	=55	=55	=55	=55	=55	=55	=55	=55	=55	=55	=55	=55	=55	=55	=55	=55	=55	=55	=55	=55	=55	=55	=55
!	!	!LO:DY:color=red	!	!LO:DY:color=red	!	!LO:DY:color=red	!	!LO:DY:color=red	!	!	!LO:DY:a:color=red	!	!	!LO:DY:a:color=red	!	!	!LO:DY:a:color=red	!	!	!LO:DY:a:color=red	!	!LO:DY:color=red	!	!LO:DY:color=red	!	!LO:DY:color=red	!	!LO:DY:color=red
4E\	.	f	8r	p	8r	p	(16g\LL	p	2G\	o-	p	2e\	o-	p	2b-\	o-	p	2cc\	o-	p	2c/	p	2g\	p	2gg\	p	2bb-\	p
.	.	.	.	.	.	.	16cc\	.	.	.	.	.	.	.	.	.	.	.	.	.	.	.	.	.	.	.	.	.
.	.	.	8e|\L	.	8g|/L	.	16ee\	.	.	.	.	.	.	.	.	.	.	.	.	.	.	.	.	.	.	.	.	.
.	.	.	.	.	.	.	16cc\JJ)	.	.	.	.	.	.	.	.	.	.	.	.	.	.	.	.	.	.	.	.	.
4C\	.	.	(8g\	.	(8b-/	.	(16g\LL	.	.	.	.	.	.	.	.	.	.	.	.	.	.	.	.	.	.	.	.	.
.	.	.	.	.	.	.	16cc\	.	.	.	.	.	.	.	.	.	.	.	.	.	.	.	.	.	.	.	.	.
.	.	.	8e\J)	.	8g/J)	.	16ee\	.	.	.	.	.	.	.	.	.	.	.	.	.	.	.	.	.	.	.	.	.
.	.	.	.	.	.	.	16cc\JJ)	.	.	.	.	.	.	.	.	.	.	.	.	.	.	.	.	.	.	.	.	.
4F\	.	.	8r	.	8r	.	(16a\LL	.	4F\	-ra	.	4f\	-ra	.	4a\	-ra	.	4cc\	-ra	.	2f\	.	2a\	.	2ff\	.	2aa\	.
.	.	.	.	.	.	.	16cc\	.	.	.	.	.	.	.	.	.	.	.	.	.	.	.	.	.	.	.	.	.
.	.	.	8f|\L	.	8a|\L	.	16ff\	.	.	.	.	.	.	.	.	.	.	.	.	.	.	.	.	.	.	.	.	.
.	.	.	.	.	.	.	16cc\JJ)	.	.	.	.	.	.	.	.	.	.	.	.	.	.	.	.	.	.	.	.	.
4A\	.	.	(8a\	.	(8cc\	.	(16a\LL	.	4F\	pro	.	4f\	pro	.	4a\	pro	.	4cc\	pro	.	.	.	.	.	.	.	.	.
.	.	.	.	.	.	.	16cc\	.	.	.	.	.	.	.	.	.	.	.	.	.	.	.	.	.	.	.	.	.
!	!	!	!	!	!	!LO:DY:color=red	!	!	!	!	!	!	!	!	!	!	!	!	!	!	!	!	!	!	!	!	!	!
.	.	.	8cc\J)	.	8ff\J)	f	16ff\	.	.	.	.	.	.	.	.	.	.	.	.	.	.	.	.	.	.	.	.	.
.	.	.	.	.	.	.	16cc\JJ)	.	.	.	.	.	.	.	.	.	.	.	.	.	.	.	.	.	.	.	.	.
=56	=56	=56	=56	=56	=56	=56	=56	=56	=56	=56	=56	=56	=56	=56	=56	=56	=56	=56	=56	=56	=56	=56	=56	=56	=56	=56	=56	=56
!	!	!	!	!LO:DY:color=red	!	!	!LO:TX:t=t&colon;	!LO:DY:color=red	!	!	!LO:DY:a:color=red	!	!	!LO:DY:a:color=red	!	!	!LO:DY:a:color=red	!	!	!LO:DY:a:color=red	!	!LO:DY:color=red	!	!LO:DY:color=red	!	!LO:DY:color=red	!	!LO:DY:color=red
4c\	.	.	4cc\	f	4ff\	.	4aa\	f	4c\	no-	f	4f\	no-	f	4a\	no-	f	4cc\	no-	f	4f\	f	4a\	f	4ff\	f	4aa\	f
4C/	.	.	4cc\	.	4ee\	.	4gg\	.	4C/	-bis	.	4e\	-bis	.	4g\	-bis	.	4cc\	-bis	.	4c/	.	4g\	.	4ee\	.	4gg\	.
!	!	!	!LO:TX:b:i:t=dolce:color=red	!	!LO:TX:b:i:t=dolce:color=red	!	!LO:TX:b:i:t=Dolce:color=red	!	!	!	!	!	!	!	!LO:TX:a:i:t=dolce:color=red	!	!	!LO:TX:a:i:t=Dolce	!	!	!	!	!	!	!	!	!	!
2r	.	.	4A/	.	(4f/	.	(4a/	.	2r	.	.	2r	.	.	(4f\	Re-	.	(4a\	Re-	.	2r	.	2r	.	2r	.	2r	.
.	.	.	4B-/	.	4g/)	.	4b-/)	.	.	.	.	.	.	.	4g\)	.	.	4b-\)	.	.	.	.	.	.	.	.	.	.
!	!	!	!	!	!	!	!	!	!	!	!	!LO:LB:g=original	!	!	!	!	!	!LO:LB:g=original	!	!	!	!	!	!	!	!	!	!
=57	=57	=57	=57	=57	=57	=57	=57	=57	=57	=57	=57	=57	=57	=57	=57	=57	=57	=57	=57	=57	=57	=57	=57	=57	=57	=57	=57	=57
!LO:TX:a:i:t=Solo	!	!LO:DY:color=red:t=pia	!	!	!	!LO:DY:color=red	!	!LO:DY:color=red	!LO:TX:a:t=3	!	!	!LO:TX:a:t=3	!	!	!	!	!LO:DY:a:color=red	!	!	!	!LO:TX:a:t=7	!	!LO:TX:a:t=7	!	!LO:TX:a:t=3	!	!	!
4F 4FF/	.	p	4.c/	.	4.a/	p	4.cc\	p	0r	.	.	0r	.	.	4.a\	-gi-	p	4.cc\	-gi-	.	00r	.	00r	.	0r	.	1r	.
4r	.	.	.	.	.	.	.	.	.	.	.	.	.	.	.	.	.	.	.	.	.	.	.	.	.	.	.	.
.	.	.	8A/	.	8f/	.	8a\	.	.	.	.	.	.	.	8f\	-na	.	8a\	-na	.	.	.	.	.	.	.	.	.
!	!	!	!LO:LB:g=original	!	!	!	!	!	!	!	!	!	!	!	!	!	!	!	!	!	!	!	!	!	!	!	!	!
4r	.	.	(8f\L	.	(8dd\L	.	(8ff\L	.	.	.	.	.	.	.	8dd\L	Con-	.	8ff\L	Con-	.	.	.	.	.	.	.	.	.
.	.	.	8e\	.	8cc\	.	8ee\	.	.	.	.	.	.	.	8cc\J	.	.	8ee\J	.	.	.	.	.	.	.	.	.	.
4F 4FF|/	.	.	8d\	.	8b-\	.	8dd\	.	.	.	.	.	.	.	8b-\L	-feſ-	.	8dd\L	-feſ-	.	.	.	.	.	.	.	.	.
.	.	.	8c\J)	.	8a\J)	.	8cc\J)	.	.	.	.	.	.	.	8a\J	.	.	8cc\J	.	.	.	.	.	.	.	.	.	.
=58	=58	=58	=58	=58	=58	=58	=58	=58	=58	=58	=58	=58	=58	=58	=58	=58	=58	=58	=58	=58	=58	=58	=58	=58	=58	=58	=58	=58
!	!	!	!	!	!	!	!	!	!	!	!	!	!	!	!	!	!	!	!	!	!	!	!	!	!	!	!LO:TX:a:t=3	!
4BB-|/	.	.	4d\	.	(4b-\	.	(4dd\	.	.	.	.	.	.	.	4b-\	-so-	.	4dd\	-so-	.	.	.	.	.	.	.	0r	.
4FF|/	.	.	4c\	.	4a\)	.	4cc\)	.	.	.	.	.	.	.	4a\	-rum	.	4cc\	-rum	.	.	.	.	.	.	.	.	.
2r	.	.	4A/	.	(4f/	.	(4a/	.	.	.	.	.	.	.	(4f\	o-	.	(4a\	o-	.	.	.	.	.	.	.	.	.
.	.	.	4B-/	.	4g/)	.	4b-/)	.	.	.	.	.	.	.	4g\)	.	.	4b-\)	.	.	.	.	.	.	.	.	.	.
!	!	!	!	!	!	!	!	!	!	!	!	!	!	!	!LO:LB:g=original	!	!	!	!	!	!	!	!	!	!	!	!	!
=59	=59	=59	=59	=59	=59	=59	=59	=59	=59	=59	=59	=59	=59	=59	=59	=59	=59	=59	=59	=59	=59	=59	=59	=59	=59	=59	=59	=59
4F 4FF|/	.	.	4.c/	.	4.a/	.	4.cc\	.	1r	.	.	1r	.	.	4.a\	-ra	.	4.cc\	-ra	.	.	.	.	.	1r	.	.	.
4r	.	.	.	.	.	.	.	.	.	.	.	.	.	.	.	.	.	.	.	.	.	.	.	.	.	.	.	.
.	.	.	8A/	.	8f/	.	8a\	.	.	.	.	.	.	.	8f\	o-	.	8a\	o-	.	.	.	.	.	.	.	.	.
4r	.	.	(8d\L	.	(8b-/L	.	(8dd\L	.	.	.	.	.	.	.	8b-\L	-ra	.	8dd\L	-ra	.	.	.	.	.	.	.	.	.
.	.	.	8c\	.	8a/	.	8cc\	.	.	.	.	.	.	.	8a\J	.	.	8cc\J	.	.	.	.	.	.	.	.	.	.
4F 4FF/	.	.	8B-\	.	8g/	.	8b-\	.	.	.	.	.	.	.	8g\L	pro	.	8b-\L	pro	.	.	.	.	.	.	.	.	.
.	.	.	8A\J)	.	8f/J)	.	8a\J)	.	.	.	.	.	.	.	8f\J	.	.	8a\J	.	.	.	.	.	.	.	.	.	.
=60	=60	=60	=60	=60	=60	=60	=60	=60	=60	=60	=60	=60	=60	=60	=60	=60	=60	=60	=60	=60	=60	=60	=60	=60	=60	=60	=60	=60
!	!	!	!	!	!	!	!	!	!	!	!	!	!	!	!	!	!	!	!	!	!	!	!	!	!	!LO:DY:color=red	!	!
4C/	.	.	(4A/	.	4f/	.	(4a/	.	2r	.	.	2r	.	.	4f\	no-	.	4a\	no-	.	.	.	.	.	2r	pp	2r	.
4CC/	.	.	4G/)	.	4e/	.	4g/)	.	.	.	.	.	.	.	4e\	-bis	.	4g\	-bis	.	.	.	.	.	.	.	.	.
!	!	!	!	!	!	!	!	!	!LO:TX:a:i:t=dolce:color=red	!	!	!LO:TX:a:i:t=Dolce	!	!	!	!	!	!	!	!	!	!	!	!	!LO:TX:b:i:t=dolce:color=red	!	!LO:TX:a:i:t=Dolce	!LO:DY:color=red:t=pp&colon;
2r	.	.	(4A/	.	4f/	.	(4a/	.	(4F\	Re-	.	(4A\	Re-	.	2r	.	.	2r	.	.	.	.	.	.	(4f/	.	(4a/	pp
.	.	.	4B-/)	.	4g/	.	4b-/)	.	4G\)	.	.	4B-\)	.	.	.	.	.	.	.	.	.	.	.	.	4g/)	.	4b-X/)	.
!	!	!	!	!	!	!	!	!	!	!	!	!	!	!	!	!	!	!	!	!	!	!	!	!	!	!	!LO:LB:g=original	!
=61	=61	=61	=61	=61	=61	=61	=61	=61	=61	=61	=61	=61	=61	=61	=61	=61	=61	=61	=61	=61	=61	=61	=61	=61	=61	=61	=61	=61
!	!	!	!	!	!	!	!	!	!	!	!	!	!	!	!LO:TX:a:t=5	!	!	!LO:TX:a:t=3	!	!	!	!	!	!	!	!	!	!
4FF|/	.	.	4.c/	.	4.a/	.	4.cc\	.	4.A\	-gi-	.	4.c\	-gi-	.	00r	.	.	0r	.	.	0r	.	0r	.	4.a/	.	4.cc\	.
4r	.	.	.	.	.	.	.	.	.	.	.	.	.	.	.	.	.	.	.	.	.	.	.	.	.	.	.	.
.	.	.	8A/	.	8f/	.	8a\	.	8F,<\	-na	.	8A\	-na	.	.	.	.	.	.	.	.	.	.	.	8f/	.	8a\	.
!	!	!	!	!	!LO:LB:g=original	!	!	!	!	!	!	!	!	!	!	!	!	!	!	!	!	!	!	!	!	!	!	!
4r	.	.	(8f\L	.	(8dd\L	.	(8ff\L	.	8d\L	Vir-	.	8f\L	Re-	.	.	.	.	.	.	.	.	.	.	.	8dd\L	.	(8ff\L	.
.	.	.	8e\	.	8cc\	.	8ee\	.	8c\	.	.	8e\J	.	.	.	.	.	.	.	.	.	.	.	.	8cc\	.	8ee\	.
4FF|/	.	.	8d\	.	8b-\	.	8dd\	.	8B-\	.	.	8d\	-gi-	.	.	.	.	.	.	.	.	.	.	.	8b-\	.	8dd\	.
.	.	.	8c\J)	.	8a\J)	.	8cc\J)	.	8A\J	.	.	8c\	-na	.	.	.	.	.	.	.	.	.	.	.	8a\J	.	8cc\J)	.
=62	=62	=62	=62	=62	=62	=62	=62	=62	=62	=62	=62	=62	=62	=62	=62	=62	=62	=62	=62	=62	=62	=62	=62	=62	=62	=62	=62	=62
4BB-|/	.	.	(4d\	.	(4b-/	.	(4dd\	.	8B-\	.	.	8d\	Vir-	.	.	.	.	.	.	.	.	.	.	.	(4b-/	.	(4dd\	.
.	.	.	.	.	.	.	.	.	8B-\	-gi-	.	8d\	-gi-	.	.	.	.	.	.	.	.	.	.	.	.	.	.	.
4FF|/	.	.	4c\)	.	4a/)	.	4cc\)	.	4A\	-num	.	4c\	-num	.	.	.	.	.	.	.	.	.	.	.	4a/)	.	4cc\)	.
2r	.	.	4A/	.	4f/	.	(4a/	.	(4F\	o-	.	(4A\	o-	.	.	.	.	.	.	.	.	.	.	.	(4f/	.	4a/	.
.	.	.	4B-/	.	4g/	.	4b-/)	.	4G\)	.	.	4B-\)	.	.	.	.	.	.	.	.	.	.	.	.	4g/)	.	4b-/	.
=63	=63	=63	=63	=63	=63	=63	=63	=63	=63	=63	=63	=63	=63	=63	=63	=63	=63	=63	=63	=63	=63	=63	=63	=63	=63	=63	=63	=63
!	!	!	!	!	!	!	!	!LO:DY:color=red:rj	!	!	!	!	!	!	!	!	!	!	!	!	!	!	!	!	!	!	!	!
4AA/	.	.	4c\	.	4a/	.	8cc\L	mf	4A\	-ra	.	8c\L	-ra	.	.	.	.	1r	.	.	1r	.	1r	.	4a/	.	4cc\	.
.	.	.	.	.	.	.	32qqdd/LLL	.	.	.	.	.	.	.	.	.	.	.	.	.	.	.	.	.	.	.	.	.
.	.	.	.	.	.	.	32qqee/JJJ	.	.	.	.	.	.	.	.	.	.	.	.	.	.	.	.	.	.	.	.	.
.	.	.	.	.	.	.	8ff\J	.	.	.	.	8f\J	.	.	.	.	.	.	.	.	.	.	.	.	.	.	.	.
4BB-/	.	.	4d\	.	16cc/LL	.	(16ee\LL	.	16c\LL	pro	.	16e\LL	pro	.	.	.	.	.	.	.	.	.	.	.	4r	.	4r	.
.	.	.	.	.	16b-/	.	16dd\	.	16B-\	.	.	16d\	.	.	.	.	.	.	.	.	.	.	.	.	.	.	.	.
.	.	.	.	.	16a/	.	16cc\	.	16A\	.	.	16c\	.	.	.	.	.	.	.	.	.	.	.	.	.	.	.	.
.	.	.	.	.	16g/JJ	.	16b-\JJ)	.	16G\JJ	.	.	16B-\JJ	.	.	.	.	.	.	.	.	.	.	.	.	.	.	.	.
!	!	!	!	!	!	!	!LO:LB:g=original	!	!	!	!	!	!	!	!	!	!	!	!	!	!	!	!	!	!	!	!	!
4C/	4	.	4c\	.	4f/	.	4a/	.	4F\	no-	.	(4A/	no-	.	.	.	.	.	.	.	.	.	.	.	2r	.	2r	.
4CC|/	3	.	4c\	.	4e/	.	4g/	.	4C/	.	.	4G/)	.	.	.	.	.	.	.	.	.	.	.	.	.	.	.	.
=64	=64	=64	=64	=64	=64	=64	=64	=64	=64	=64	=64	=64	=64	=64	=64	=64	=64	=64	=64	=64	=64	=64	=64	=64	=64	=64	=64	=64
!LO:TX:t=P:problem:mixed beam	!	!LO:DY:color=red:t=p&colon;	!	!	!	!	!	!LO:DY:color=red	!	!	!	!	!	!	!	!	!	!	!	!LO:DY:a:color=red	!	!LO:DY:a:color=red	!	!	!	!	!	!
8FF/L	1	p	4c\	.	4A/	.	4f/	p	4AA/	-bis	.	4F/	-bis	.	.	.	.	4f/	Re-	f	4F/	p	4f\	.	4f/	.	4f/	.
8F\	.	.	.	.	.	.	.	.	.	.	.	.	.	.	.	.	.	.	.	.	.	.	.	.	.	.	.	.
.	.	.	.	.	.	.	16qqg/	.	.	.	.	.	.	.	.	.	.	16qqg/	.	.	.	.	.	.	.	.	.	.
!	!	!	!	!LO:DY:color=red	!	!	!LO:TX:t=t&colon;	!	!	!	!	!	!	!	!	!	!	!	!	!	!	!	!	!	!	!	!	!
8FF/	.	.	8f\L	p	4r	.	8f/L	.	4r	.	.	4r	.	.	.	.	.	8f/L	.	.	4r	.	4r	.	4r	.	4r	.
8F\J	.	.	8f\J	.	.	.	(16e/L	.	.	.	.	.	.	.	.	.	.	16e/L	.	.	.	.	.	.	.	.	.	.
.	.	.	.	.	.	.	16f/JJ)	.	.	.	.	.	.	.	.	.	.	16f/JJ	.	.	.	.	.	.	.	.	.	.
*	*	*	*tremolo	*	*	*	*	*	*	*	*	*	*	*	*	*	*	*	*	*	*	*	*	*	*	*	*	*
!LO:TX:t=P:problem:mixed beam	!	!	!	!	!	!	!	!	!	!	!	!	!	!	!	!	!	!	!	!	!	!	!	!	!	!	!	!
8FF/L	2	.	8f\L	.	2r	.	8g|/L	.	2r	.	.	2r	.	.	.	.	.	4g/	-gi-	.	2r	.	2r	.	2r	.	2r	.
8F\	.	.	8f\	.	.	.	8g|/	.	.	.	.	.	.	.	.	.	.	.	.	.	.	.	.	.	.	.	.	.
8FF/	3	.	8f\	.	.	.	8a|/	.	.	.	.	.	.	.	.	.	.	8a\	-na	.	.	.	.	.	.	.	.	.
8F\J	.	.	8f\J	.	.	.	8a|/J	.	.	.	.	.	.	.	.	.	.	8a\	Sanc-	.	.	.	.	.	.	.	.	.
!	!	!	!	!	!	!	!	!	!LO:LB:g=original	!	!	!	!	!	!	!	!	!	!	!	!	!	!	!	!	!	!	!
=65	=65	=65	=65	=65	=65	=65	=65	=65	=65	=65	=65	=65	=65	=65	=65	=65	=65	=65	=65	=65	=65	=65	=65	=65	=65	=65	=65	=65
!LO:TX:t=P:problem:mixed beam	!	!	!	!	!LO:TX:a:t=1	!	!	!	!LO:TX:a:t=3	!	!	!	!	!	!	!	!	!	!	!	!	!	!	!LO:DY:color=red	!LO:TX:a:t=1	!	!LO:TX:a:t=1	!
8FF/L	1	.	8f\L	.	1r	.	8f|/L	.	0r	.	.	0r	.	.	1r	.	.	4f/	-to-	.	4r	.	4r	p	1r	.	1r	.
8F\	.	.	8f\	.	.	.	8f|/	.	.	.	.	.	.	.	.	.	.	.	.	.	.	.	.	.	.	.	.	.
!	!	!	!	!	!	!	!	!	!	!	!	!	!	!	!	!	!	!	!	!	!	!LO:DY:a:color=red	!	!	!	!	!	!
8FF/	5	.	8f\	.	.	.	8c|/	.	.	.	.	.	.	.	.	.	.	4c/	-rum	.	4F/	p	4f\	.	.	.	.	.
8F\J	.	.	8f\J	.	.	.	8c|/J	.	.	.	.	.	.	.	.	.	.	.	.	.	.	.	.	.	.	.	.	.
!LO:TX:t=P:problem:mixed beam	!	!	!	!	!	!	!	!	!	!	!	!	!	!	!	!	!	!	!	!	!	!	!	!	!	!	!	!
8FF/L	1	.	8f\L	.	.	.	8f|/L	.	.	.	.	.	.	.	.	.	.	8f/	om-	.	4F/	.	4f\	.	.	.	.	.
8F\	.	.	8f\	.	.	.	8f|/	.	.	.	.	.	.	.	.	.	.	8f/	-ni-	.	.	.	.	.	.	.	.	.
8FF/	2	.	8f\	.	.	.	8g|/	.	.	.	.	.	.	.	.	.	.	4g/	-um	.	4F/	.	4f\	.	.	.	.	.
8F\J	.	.	8f\J	.	.	.	8g|/J	.	.	.	.	.	.	.	.	.	.	.	.	.	.	.	.	.	.	.	.	.
!LO:LB:g=original	!	!	!LO:PB:g=original	!	!	!	!	!	!	!	!	!	!	!	!	!	!	!LO:LB:g=original	!	!	!	!	!	!	!	!	!	!
=66	=66	=66	=66	=66	=66	=66	=66	=66	=66	=66	=66	=66	=66	=66	=66	=66	=66	=66	=66	=66	=66	=66	=66	=66	=66	=66	=66	=66
!LO:TX:t=P:problem:mixed beam	!	!LO:HP:a:t=cres	!	!LO:HP:t=cres:color=red	!	!LO:DY:color=red	!	!LO:HP:t=cres.:color=red	!	!	!	!	!	!	!	!	!LO:DY:b:color=red	!	!	!	!	!	!	!	!	!	!	!
8FF/L	3 1	<	8f\L	<	4f/	p	4a/	<	.	.	.	.	.	.	4f\	Re-	f	4a\	Re-	.	4F/	.	4f\	.	4f/	.	4a/	.
!	!	!	!	!	!	!LO:HP:t=cres:color=red	!	!	!	!	!	!	!	!	!	!	!	!	!	!	!	!	!	!	!	!	!	!
8F\	.	.	8f\	.	.	<	.	.	.	.	.	.	.	.	.	.	.	.	.	.	.	.	.	.	.	.	.	.
.	.	.	.	.	16qqg/	.	16qqb-/	.	.	.	.	.	.	.	16qqg/	.	.	16qqb-/	.	.	.	.	.	.	.	.	.	.
8FF/	.	.	8f\	.	(8fT/L	.	8a/L	.	.	.	.	.	.	.	8f\L	.	.	8a\L	.	.	4r	.	4r	.	4r	.	4r	.
8F\J	.	.	8f\J	.	16e/L	.	16g/L	.	.	.	.	.	.	.	16e\L	.	.	16g\L	.	.	.	.	.	.	.	.	.	.
.	.	.	.	.	16f/JJ)	.	16a/JJ	.	.	.	.	.	.	.	16f\JJ	.	.	16a\JJ	.	.	.	.	.	.	.	.	.	.
!LO:TX:t=P:problem:mixed beam	!	!	!	!	!	!	!	!	!	!	!	!	!	!	!	!	!	!	!	!	!	!	!	!	!	!	!	!
8FF/L	4 2	.	8f\L	.	8g|/L	.	8b-|\L	.	.	.	.	.	.	.	4g\	-gi-	.	4b-\	-gi-	.	2r	.	2r	.	2r	.	2r	.
8F\	.	.	8f\	.	8g|/	.	8b-|\	.	.	.	.	.	.	.	.	.	.	.	.	.	.	.	.	.	.	.	.	.
8FF/	5 3	.	8f\	.	8a|/	.	8cc|\	.	.	.	.	.	.	.	8a\	-na	.	8cc\	-na	.	.	.	.	.	.	.	.	.
8F\J	.	.	8f\J	.	8a|/J	.	8cc|\J	.	.	.	.	.	.	.	8a\	San-	.	8cc\	San-	.	.	.	.	.	.	.	.	.
=67	=67	=67	=67	=67	=67	=67	=67	=67	=67	=67	=67	=67	=67	=67	=67	=67	=67	=67	=67	=67	=67	=67	=67	=67	=67	=67	=67	=67
!LO:TX:t=P:problem:mixed beam	!	!	!	!	!	!	!	!	!	!	!	!	!	!	!	!	!	!	!	!	!	!	!	!	!LO:TX:a:t=1	!	!LO:TX:a:t=1	!
8FF/L	3 1	.	8f\L	.	8f|/L	.	8a|/L	.	1r	.	.	1r	.	.	4f\	-cto-	.	4a\	-cto-	.	4r	.	4r	.	1r	.	1r	.
8F\	.	.	8f\	.	8f|/	.	8a|/	.	.	.	.	.	.	.	.	.	.	.	.	.	.	.	.	.	.	.	.	.
8FF/	8 5	.	8f\	.	8c|/	.	8f|/	.	.	.	.	.	.	.	4c\	-rum	.	4f\	-rum	.	4F/	.	4f\	.	.	.	.	.
8F\J	.	.	8f\J	.	8c|/J	.	8f|/J	.	.	.	.	.	.	.	.	.	.	.	.	.	.	.	.	.	.	.	.	.
!LO:TX:t=P:problem:mixed beam	!	!	!	!	!	!	!	!	!	!	!	!	!	!	!	!	!	!	!	!	!	!	!	!	!	!	!	!
8FF/L	3 1	.	8f\L	.	8f|/L	.	8a|/L	.	.	.	.	.	.	.	8f\	om-	.	8a\	om-	.	4F/	.	4f\	.	.	.	.	.
8F\	.	.	8f\	.	8f|/	.	8a|/	.	.	.	.	.	.	.	8f\	-ni-	.	8a\	-ni-	.	.	.	.	.	.	.	.	.
8FF/	4 2	.	8f\	.	8g|/	.	8b-|/	.	.	.	.	.	.	.	4g\	-um	.	4b-\	-um	.	4F/	.	4f\	.	.	.	.	.
8F\J	.	.	8f\J	.	8g|/J	.	8b-|/J	.	.	.	.	.	.	.	.	.	.	.	.	.	.	.	.	.	.	.	.	.
*	*	*	*Xtremolo	*	*	*	*	*	*	*	*	*	*	*	*	*	*	*	*	*	*	*	*	*	*	*	*	*
=68	=68	=68	=68	=68	=68	=68	=68	=68	=68	=68	=68	=68	=68	=68	=68	=68	=68	=68	=68	=68	=68	=68	=68	=68	=68	=68	=68	=68
!	!	!LO:DY:color=red:t=for	!	!LO:DY:color=red	!	!LO:DY:color=red:t=forto	!	!LO:DY:color=red:t=fort	!	!	!LO:DY:a:color=red	!	!	!LO:DY:a:color=red	!	!	!	!	!	!	!	!LO:DY:color=red	!	!LO:DY:color=red	!	!LO:DY:color=red:t=f&colon;	!	!LO:DY:color=red
8AA/L	5 3	f	8f\	ff	8a/	f	4cc\	f	4F\	o-	f	4f\	o-	f	4a\	o-	.	4cc\	o-	.	2f\	f	2a\	f	2a/	f	2cc\	f
8FF/	.	.	4f\	.	4a/	.	.	.	.	.	.	.	.	.	.	.	.	.	.	.	.	.	.	.	.	.	.	.
8AA/	.	.	.	.	.	.	(16gg\LL	.	4r	.	.	4r	.	.	4r	.	.	4r	.	.	.	.	.	.	.	.	.	.
.	.	.	.	.	.	.	16ff\	.	.	.	.	.	.	.	.	.	.	.	.	.	.	.	.	.	.	.	.	.
8FF/J	.	.	4f\	.	8a/	.	16ee\	.	.	.	.	.	.	.	.	.	.	.	.	.	.	.	.	.	.	.	.	.
.	.	.	.	.	.	.	16ff\JJ)	.	.	.	.	.	.	.	.	.	.	.	.	.	.	.	.	.	.	.	.	.
8BB-/L	3	.	.	.	8b-/	.	4dd\	.	4BB-/	.	.	4f\	-ra	.	4b-\	.	.	4dd\	.	.	2F/	.	2f\	.	2b-/	.	2dd\	.
8FF/	.	.	4f\	.	4b-/	.	.	.	.	.	.	.	.	.	.	.	.	.	.	.	.	.	.	.	.	.	.	.
8BB-/	.	.	.	.	.	.	(16gg\LL	.	4r	.	.	4r	.	.	4r	.	.	4r	.	.	.	.	.	.	.	.	.	.
.	.	.	.	.	.	.	16ff\	.	.	.	.	.	.	.	.	.	.	.	.	.	.	.	.	.	.	.	.	.
8FF/J	.	.	8f\	.	8b-/	.	16ee\	.	.	.	.	.	.	.	.	.	.	.	.	.	.	.	.	.	.	.	.	.
.	.	.	.	.	.	.	16ff\JJ)	.	.	.	.	.	.	.	.	.	.	.	.	.	.	.	.	.	.	.	.	.
!	!	!	!	!	!	!	!	!	!	!	!	!LO:LB:g=original	!	!	!	!	!	!	!	!	!LO:LB:g=original	!	!	!	!	!	!	!
=69	=69	=69	=69	=69	=69	=69	=69	=69	=69	=69	=69	=69	=69	=69	=69	=69	=69	=69	=69	=69	=69	=69	=69	=69	=69	=69	=69	=69
8AA/L	.	.	8f\	.	8a/	.	4cc\	.	4F\	-ra	.	4f\	pro	.	4a\	-ra	.	4cc\	-ra	.	2f\	.	2a\	.	2a/	.	2cc\	.
8FF/	.	.	4f\	.	4a/	.	.	.	.	.	.	.	.	.	.	.	.	.	.	.	.	.	.	.	.	.	.	.
8AA/	.	.	.	.	.	.	(16gg\LL	.	4r	.	.	4r	.	.	4r	.	.	4r	.	.	.	.	.	.	.	.	.	.
.	.	.	.	.	.	.	16ff\	.	.	.	.	.	.	.	.	.	.	.	.	.	.	.	.	.	.	.	.	.
8FF/J	.	.	4f\	.	8a/	.	16ee\	.	.	.	.	.	.	.	.	.	.	.	.	.	.	.	.	.	.	.	.	.
.	.	.	.	.	.	.	16ff\JJ)	.	.	.	.	.	.	.	.	.	.	.	.	.	.	.	.	.	.	.	.	.
8BB-/L	.	.	.	.	8b-/	.	4dd\	.	4BB-/	o-	.	4f\	no-	.	4b-\	o-	.	4dd\	o-	.	2F/	.	2f\	.	2b-/	.	2dd\	.
8FF/	.	.	4f\	.	4b-/	.	.	.	.	.	.	.	.	.	.	.	.	.	.	.	.	.	.	.	.	.	.	.
8BB-/	.	.	.	.	.	.	(16gg\LL	.	4r	.	.	4r	.	.	4r	.	.	4r	.	.	.	.	.	.	.	.	.	.
.	.	.	.	.	.	.	16ff\	.	.	.	.	.	.	.	.	.	.	.	.	.	.	.	.	.	.	.	.	.
8FF/J	.	.	8f\	.	8b-/	.	16ee\	.	.	.	.	.	.	.	.	.	.	.	.	.	.	.	.	.	.	.	.	.
.	.	.	.	.	.	.	16ff\JJ)	.	.	.	.	.	.	.	.	.	.	.	.	.	.	.	.	.	.	.	.	.
!	!	!	!	!	!LO:LB:g=original	!	!	!	!	!	!	!	!	!	!	!	!	!	!	!	!	!	!	!	!LO:LB:g=original	!	!	!
=70	=70	=70	=70	=70	=70	=70	=70	=70	=70	=70	=70	=70	=70	=70	=70	=70	=70	=70	=70	=70	=70	=70	=70	=70	=70	=70	=70	=70
!	!	!	!	!	!LO:TX:t=P:problem:mixed beam	!	!	!LO:DY:color=red	!	!	!	!	!	!	!	!	!	!	!	!	!	!	!	!	!	!	!	!
4F 4FF/	.	.	4f\	.	8a/L	.	8cc\L	p	4F\	-ra	.	4f\	-bis	.	4a\	-ra	.	4cc\	-ra	.	4F/	.	4A/	.	4a/	.	4cc\	.
!	!	!	!	!	!	!LO:DY:color=red	!	!	!	!	!	!	!	!	!	!	!	!	!	!	!	!	!	!	!	!	!	!
.	.	.	.	.	8ff\	p	8aa\	.	.	.	.	.	.	.	.	.	.	.	.	.	.	.	.	.	.	.	.	.
4r	.	.	4r	.	8ee\	.	8gg\	.	4r	.	.	4r	.	.	4r	.	.	4r	.	.	4r	.	4r	.	4r	.	4r	.
.	.	.	.	.	8dd\J	.	8ff\J	.	.	.	.	.	.	.	.	.	.	.	.	.	.	.	.	.	.	.	.	.
!	!	!	!	!	!LO:TX:b:t=c	!	!	!	!	!	!	!	!	!	!	!	!	!	!	!	!	!	!	!	!	!	!	!
2r	.	.	2r	.	8cc\L	.	8ee\L	.	2r	.	.	2r	.	.	2r	.	.	2r	.	.	2r	.	2r	.	2r	.	2r	.
.	.	.	.	.	8b-\	.	8dd\	.	.	.	.	.	.	.	.	.	.	.	.	.	.	.	.	.	.	.	.	.
.	.	.	.	.	8a\	.	8cc\	.	.	.	.	.	.	.	.	.	.	.	.	.	.	.	.	.	.	.	.	.
.	.	.	.	.	8g\J	.	8b-\J	.	.	.	.	.	.	.	.	.	.	.	.	.	.	.	.	.	.	.	.	.
!	!	!	!	!	!	!	!LO:LB:g=original	!	!	!	!	!	!	!	!	!	!	!	!	!	!	!	!	!	!	!	!	!
=71	=71	=71	=71	=71	=71	=71	=71	=71	=71	=71	=71	=71	=71	=71	=71	=71	=71	=71	=71	=71	=71	=71	=71	=71	=71	=71	=71	=71
!	!	!	!	!	!	!LO:DY:color=red	!	!LO:DY:color=red	!	!	!	!	!	!	!	!	!	!	!	!	!	!	!	!	!	!	!	!
4AA/	.	.	4c\	.	(8f/L	f	(8a\L	f	4A\	o-	.	4c\	o-	.	4a\	o-	.	4cc\	o-	.	4F/	.	4c/	.	4a/	.	4cc\	.
.	.	.	.	.	8a/J)	.	8ff\J)	.	.	.	.	.	.	.	.	.	.	.	.	.	.	.	.	.	.	.	.	.
.	.	.	.	.	.	.	.	.	.	.	.	.	.	.	.	.	.	.	.	.	.	.	.	.	.	.	8qqee/	.
4BB-/	.	.	4d\	.	(16cc/LL	.	(16ee\LL	.	8B-\	-ra	.	8d\	-ra	.	8b-\	-ra	.	8dd\	-ra	.	4r	.	4r	.	8b-/L	.	(8dd\L	.
.	.	.	.	.	16b-/	.	16dd\	.	.	.	.	.	.	.	.	.	.	.	.	.	.	.	.	.	.	.	.	.
.	.	.	.	.	16a/	.	16cc\	.	8B-\	pro	.	8d\	pro	.	8g\	pro	.	16cc\LL	pro	.	.	.	.	.	16a/L	.	16cc\L	.
.	.	.	.	.	16g/JJ)	.	16b-\JJ)	.	.	.	.	.	.	.	.	.	.	16b-\JJ	.	.	.	.	.	.	16g/JJ	.	16b-\JJ)	.
4C/	4	.	4c\	.	(4f/	.	4a/	.	(4c\	no-	.	2c\	no-	.	(4f\	no-	.	(4a\	no-	.	4f\	.	4a\	.	4f/	.	4a/	.
4CC/	3	.	4c\	.	4e/)	.	4g/	.	4C/)	.	.	.	.	.	4e\)	.	.	4g\)	.	.	4c/	.	4g\	.	4e/	.	4g/	.
=72	=72	=72	=72	=72	=72	=72	=72	=72	=72	=72	=72	=72	=72	=72	=72	=72	=72	=72	=72	=72	=72	=72	=72	=72	=72	=72	=72	=72
*	*	*	*	*	*^	*	*	*	*	*	*	*	*	*	*	*	*	*	*	*	*	*	*	*	*	*	*	*
4FF/	.	.	4c\	.	4f/	4ryy	.	4f/	.	4F\	-bis	.	4c\	-bis	.	4f\	-bis	.	4f/	-bis	.	4A/	.	4f\	.	4f/	.	4f/	.
4F\	.	.	4c\	.	4a/	4f\	.	4ff 4a\	.	4F\	no-	.	4c\	no-	.	4f\	no-	.	4a\	no-	.	4F/	.	4A/	.	4a/	.	4ff\	.
4FF/	.	.	4c\	.	4a/	4f\	.	4ff 4a\	.	4F\	-bis	.	4c\	-bis	.	4f\	-bis	.	4a\	-bis	.	4F/	.	4A/	.	4a/	.	4ff\	.
4r	.	.	4r	.	4r	4ryy	.	4r	.	4r	.	.	4r	.	.	4r	.	.	4r	.	.	4r	.	4r	.	4r	.	4r	.
*	*	*	*	*	*v	*v	*	*	*	*	*	*	*	*	*	*	*	*	*	*	*	*	*	*	*	*	*	*	*
==	==	==	==	==	==	==	==	==	==	==	==	==	==	==	==	==	==	==	==	==	==	==	==	==	==	==	==	==
*-	*-	*-	*-	*-	*-	*-	*-	*-	*-	*-	*-	*-	*-	*-	*-	*-	*-	*-	*-	*-	*-	*-	*-	*-	*-	*-	*-	*-
!!!system-decoration: [(g1)][(g2)][(g3)][(g4)]<s12>
!!!RDF**kern: < = below
!!!RDF**kern: | = vertical stroke
!!!ENC: Mateusz Solarz
!!!END: 2020-11-05
!!!ENC: Andrzej Kubiczek
!!!END: 2022-05-01
!!!YEC: Copyright 2022 Narodowy Instytut Fryderyka Chopina (https://polishscores.org)
!!!YEM: License CC-BY-4.0 (https://creativecommons.org/licenses/by/4.0)
